!!!!SEGMENT: pl-sa--78-a-ii-18--001_kraus-lambert--requiem-ex-dis-requiem.krn
!!!cenid: 17xx:1681
!!!COM: Kraus, Lambert
!!!COM-rismid: pe30001779
!!!CDT: 1728-1790
!!!CNT:
!!!OPR: Requiem ex Dis
!!!OTL: Requiem
!!!OMV: 001
!!!PDT:
!!!AGN: Sacred; Requiem
!!!SMS-siglum: PL-SA
!!!SMS-shelfmark: 78/A II 18
!!!SMS-shelfwork: 001-001 M
!!!SMS-variant:
!!!SMS-altvar:
!!!NIFC-rismid: 1001070176
!!!URL-scan: http://bc.bdsandomierz.pl/dlibra/publication/1355/edition/1323/content
!!!ONB-nifc: UWAGA: części Requiem: 1. Requiem, 2. Kyrie, 3. Dies irae, 4. Responde mihi, 5. Sanctus, 6. Benedictus, 7. Agnus Dei, 8. Lux aeterna
!!!key: E-
**kern	**fba	**dynam	**kern	**dynam	**kern	**dynam	**kern	**text	**kern	**text	**kern	**text	**kern	**text	**kern	**kern
*part9	*	*part9	*part8	*part8	*part7	*part7	*part6	*part6	*part5	*part5	*part4	*part4	*part3	*part3	*part2	*part1
*group4	*	*	*group3	*	*group3	*	*group2	*group2	*group2	*group2	*group2	*group2	*group2	*group2	*group1	*group1
*staff9	*	*	*staff8	*	*staff7	*	*staff6	*staff6	*staff5	*staff5	*staff4	*staff4	*staff3	*staff3	*staff2	*staff1
*I"Organo	*	*	*I"Violino 2do	*	*I"Violino 1mo	*	*I"Baſso	*	*I"Tenore	*	*I"Alto	*	*I"Canto	*	*I"Cornu 2do ex Dis	*I"Cornu 1mo ex Dis
*I'org	*	*	*I'vl 2	*	*I'vl 1	*	*I'B	*	*I'T	*	*I'A	*	*I'S	*	*I'cor 2	*I'cor 1
*Iorgan	*	*	*Ivioln	*	*Ivioln	*	*Ibass	*	*Itenor	*	*Ialto	*	*Isoprn	*	*Icor	*Icor
*ICklav	*	*	*ICstr	*	*ICstr	*	*ICvox	*	*ICvox	*	*ICvox	*	*ICvox	*	*ICbras	*ICbras
*clefF4	*	*	*clefG2	*	*clefG2	*	*clefF4	*	*clefC4	*	*clefC3	*	*clefC1	*	*clefG2	*clefG2
*	*	*	*	*	*	*	*	*	*	*	*	*	*	*	*ITrd5c9	*ITrd5c9
*k[a-e-b-]	*	*	*k[e-b-a-]	*	*k[e-b-a-]	*	*k[b-e-a-]	*	*k[a-b-e-]	*	*k[a-b-e-]	*	*k[a-b-e-]	*	*k[b-e-a-]	*k[b-e-a-]
*E-:	*	*	*E-:	*	*E-:	*	*E-:	*	*E-:	*	*E-:	*	*E-:	*	*E-:	*E-:
*M4/4	*	*	*M4/4	*	*M4/4	*	*M4/4	*	*M4/4	*	*M4/4	*	*M4/4	*	*M4/4	*M4/4
*met(c)	*	*	*met(c)	*	*met(c)	*	*met(c)	*	*met(c)	*	*met(c)	*	*met(c)	*	*met(c)	*met(c)
=1	=1	=1	=1	=1	=1	=1	=1	=1	=1	=1	=1	=1	=1	=1	=1	=1
*2\right	*	*2\right	*2\right	*2\right	*2\right	*below	*2\right	*2\right	*2\right	*2\right	*2\right	*2\right	*2\right	*2\right	*2\right	*2\right
!!LO:TX:t=P:problem:p=pia
!!LO:TX:t=P:problem:f=ffor
!LO:TX:t=P:problem:znaki: A- zamiast AA-	!	!	!LO:TX:t=P:problem:kolejność znaków ee- b- a-	!	!	!	!LO:TX:t=P:problem:znaki: A- zamiast AA-	!	!	!	!	!	!LO:TX:t=P:problem:kolejność znaków a- b- ee-, ee- zamiast e-	!	!	!LO:TX:a:t=Adagio
!LO:TX:a:t=Adagio	!	!	!LO:TX:a:t=Adagio	!	!LO:TX:a:t=Adgio	!	!LO:TX:a:t=Adagio	!	!LO:TX:a:t=Adagio	!	!LO:TX:a:t=Adagio	!	!LO:TX:a:t=Adagio	!	!LO:TX:a:t=Adagio	!
!	!	!	!	!	!LO:TX:t=P:problem:mixed beam	!	!	!	!	!	!	!	!	!	!	!
4E-\	.	.	8b-/L	.	8ee-\L	p	4E-\	Rae-	4.G/	Rae-	4.b-\	Re-	4.ee-\	Rae-	4E-/	4E-/
.	.	.	8b-/	.	8g/	.	.	.	.	.	.	.	.	.	.	.
4r	.	.	8b-/	.	8g/	.	4G\	-qvi-	.	.	.	.	.	.	4r	4r
.	.	.	8b-/J	.	8g/J	.	.	.	8G/	-qvi-	8b-\	-qvi-	8ee-\	-qvi-	.	.
2r	.	.	8e-/L	.	8a-/L	.	4A-\	-em	4A-/	-em	4e-\	-em	4cc\	-em	2r	2r
.	.	.	8e-/	.	8a-/	.	.	.	.	.	.	.	.	.	.	.
.	.	.	8e-/	.	8g/	.	8G\L	ae-	4G/	ae-	4e-\	ae-	8b-\L	ae-	.	.
.	.	.	8e-/J	.	8g/J	.	8A-\J	.	.	.	.	.	8cc\J	.	.	.
=2	=2	=2	=2	=2	=2	=2	=2	=2	=2	=2	=2	=2	=2	=2	=2	=2
0r	.	.	8g/L	.	8b-/L	.	(4B-\	-te-	2B-\	-ter-	(4g\	-ter-	(4b-\	-te-	4BB-/	4B-/
.	.	.	8g/	.	8b-/	.	.	.	.	.	.	.	.	.	.	.
.	.	.	8f/	.	8b-/	.	4BB-/	.	.	.	4f\	.	4a-\	.	4BB-/	4B-/
.	.	.	8f/J	.	8b-/J	.	.	.	.	.	.	.	.	.	.	.
.	.	.	4e-/	.	4b-/	.	4E-\)	-[r]nam	4B-\	-nam	4e-\)	-nam	4g\)	-rnam	4E-/	4E-/
.	.	.	4r	.	4r	.	8r	.	4r	.	8r	.	8r	.	4r	4r
.	.	.	.	.	.	.	(16G\LL	ae-	.	.	16g\LL	e-	16ee-\LL	ae-	.	.
.	.	.	.	.	.	.	16A-\JJ)	.	.	.	16a-\JJ	.	16cc\JJ	.	.	.
=3	=3	=3	=3	=3	=3	=3	=3	=3	=3	=3	=3	=3	=3	=3	=3	=3
!	!	!	!	!	!LO:TX:a:t=1	!	!	!	!	!	!	!	!	!	!	!
.	.	.	1r	.	1r	.	4G\	-te-	0r	.	(4g\	-ter-	(4b-\	-te-	0r	0r
.	.	.	.	.	.	.	4F\	.	.	.	4f\	.	4a-\	.	.	.
.	.	.	.	.	.	.	4E-\	-rnam	.	.	4e-\)	-nam	4g\)	-rnam	.	.
.	.	.	.	.	.	.	4r	.	.	.	4r	.	4r	.	.	.
!	!	!	!	!	!LO:LB:g=original	!	!LO:LB:g=original	!	!	!	!	!	!	!	!	!
=4	=4	=4	=4	=4	=4	=4	=4	=4	=4	=4	=4	=4	=4	=4	=4	=4
*Xtuplet	*	*	*Xtuplet	*	*Xtuplet	*	*	*	*	*	*	*	*	*	*	*
!	!	!	!	!	!	!	!	!	!	!	!LO:TX:a:t=2	!	!LO:TX:a:t=2	!	!	!
24A-\LL	x 6	f	24c/LL	f	24f/LL	f	0r	.	.	.	0r	.	0r	.	.	.
24A-\	.	.	24c/	.	24f/	.	.	.	.	.	.	.	.	.	.	.
24A-\JJ	.	.	24c/JJ	.	24f/JJ	.	.	.	.	.	.	.	.	.	.	.
24A-\LL	.	p	24c/LL	p	24f/LL	p	.	.	.	.	.	.	.	.	.	.
24A-\	.	.	24c/	.	24f/	.	.	.	.	.	.	.	.	.	.	.
24A-\JJ	.	.	24c/JJ	.	24f/JJ	.	.	.	.	.	.	.	.	.	.	.
!	!	!	!LO:LB:g=original	!	!	!	!	!	!	!	!	!	!	!	!	!
24A-\LL	.	f	24c/LL	f	24f/LL	f	.	.	.	.	.	.	.	.	.	.
24A-\	.	.	24c/	.	24f/	.	.	.	.	.	.	.	.	.	.	.
24A-\JJ	.	.	24c/JJ	.	24f/JJ	.	.	.	.	.	.	.	.	.	.	.
24A-\LL	.	p	24c/LL	p	24f/LL	p	.	.	.	.	.	.	.	.	.	.
24A-\	.	.	24c/	.	24f/	.	.	.	.	.	.	.	.	.	.	.
24A-\JJ	.	.	24c/JJ	.	24f/JJ	.	.	.	.	.	.	.	.	.	.	.
!LO:LB:g=original	!	!	!	!	!	!	!	!	!	!	!	!	!	!	!	!
24A-\LL	.	.	24f/LL	f	24cc\LL	f	.	.	.	.	.	.	.	.	.	.
24A-\	.	.	24f/	.	24cc\	.	.	.	.	.	.	.	.	.	.	.
24A-\JJ	.	.	24f/JJ	.	24cc\JJ	.	.	.	.	.	.	.	.	.	.	.
24A-\LL	.	.	24f/LL	p	24cc\LL	p	.	.	.	.	.	.	.	.	.	.
24A-\	.	.	24f/	.	24cc\	.	.	.	.	.	.	.	.	.	.	.
24A-\JJ	.	.	24f/JJ	.	24cc\JJ	.	.	.	.	.	.	.	.	.	.	.
24A-\LL	.	.	24f/LL	f	24a-/LL	f	.	.	.	.	.	.	.	.	.	.
24A-\	.	.	24f/	.	24a-/	.	.	.	.	.	.	.	.	.	.	.
24A-\JJ	.	.	24f/JJ	.	24a-/JJ	.	.	.	.	.	.	.	.	.	.	.
24A-\LL	.	.	24f/LL	p	24a-/LL	p	.	.	.	.	.	.	.	.	.	.
24A-\	.	.	24f/	.	24a-/	.	.	.	.	.	.	.	.	.	.	.
24A-\JJ	.	.	24f/JJ	.	24a-/JJ	.	.	.	.	.	.	.	.	.	.	.
=5	=5	=5	=5	=5	=5	=5	=5	=5	=5	=5	=5	=5	=5	=5	=5	=5
24B-\LL	6 4	.	24e-/LL	.	24g/LL	.	.	.	1r	.	.	.	.	.	1r	1r
24B-\	.	.	24e-/	.	24g/	.	.	.	.	.	.	.	.	.	.	.
24B-\JJ	.	.	24e-/JJ	.	24g/JJ	.	.	.	.	.	.	.	.	.	.	.
24B-\LL	.	.	24e-/LL	.	24g/LL	.	.	.	.	.	.	.	.	.	.	.
24B-\	.	.	24e-/	.	24g/	.	.	.	.	.	.	.	.	.	.	.
24B-\JJ	.	.	24e-/JJ	.	24g/JJ	.	.	.	.	.	.	.	.	.	.	.
24B-\LL	.	.	24dLL 24B-/	.	24f/LL	.	.	.	.	.	.	.	.	.	.	.
24B-\	.	.	24d 24B-/	.	24f/	.	.	.	.	.	.	.	.	.	.	.
24B-\JJ	.	.	24dJJ 24B-/	.	24f/JJ	.	.	.	.	.	.	.	.	.	.	.
24B-\LL	.	.	24dLL 24B-/	.	24f/LL	.	.	.	.	.	.	.	.	.	.	.
24B-\	.	.	24d 24B-/	.	24f/	.	.	.	.	.	.	.	.	.	.	.
24B-\JJ	.	.	24dJJ 24B-/	.	24f/JJ	.	.	.	.	.	.	.	.	.	.	.
!LO:TX:t=P:problem:mixed beam	!	!	!	!	!LO:LB:g=original	!	!	!	!	!	!	!	!	!	!	!
8E-\L	.	.	8G/L	.	8e-/L	.	.	.	.	.	.	.	.	.	.	.
8EE-/J	.	.	8G/J	.	8e-/J	.	.	.	.	.	.	.	.	.	.	.
4EE-/	.	.	4G/	.	4e-/	.	.	.	.	.	.	.	.	.	.	.
!	!	!	!	!	!	!	!	!	!	!	!LO:LB:g=original	!	!	!	!	!
=6	=6	=6	=6	=6	=6	=6	=6	=6	=6	=6	=6	=6	=6	=6	=6	=6
0r	.	.	8b-/L	.	8g/L	.	4E-\	Re-	4.G/	Re-	4.b-\	Re-	4.ee-\	Re-	4E-/	4E-/
.	.	.	8b-/	.	8g/	.	.	.	.	.	.	.	.	.	.	.
.	.	.	8b-/	.	8g/	.	4G\	-qvi-	.	.	.	.	.	.	4r	4r
.	.	.	8b-/J	.	8g/J	.	.	.	8G/	-qvi-	8b-\	-qvi-	8ee-\	-qvi-	.	.
!	!	!	!	!	!	!	!	!	!	!	!	!	!LO:LB:g=original	!	!	!
.	.	.	8e-/L	.	8a-/L	.	4A-\	-em	4A-/	-em	4e-\	-em	4cc\	-em	2r	2r
.	.	.	8e-/	.	8a-/	.	.	.	.	.	.	.	.	.	.	.
.	.	.	8e-/	.	8g/	.	(8G\L	e-	4G/	ae-	4e-\	ae-	8b-\L	ae-	.	.
.	.	.	8e-/J	.	8g/J	.	8A-\J)	.	.	.	.	.	8cc\J	.	.	.
!	!	!	!LO:LB:g=original	!	!	!	!	!	!LO:LB:g=original	!	!	!	!	!	!	!
=7	=7	=7	=7	=7	=7	=7	=7	=7	=7	=7	=7	=7	=7	=7	=7	=7
.	.	.	8g/L	.	8b-/L	.	4B-\	-te-	2B-\	-ter-	(4g\	-ter-	4b-\	-te-	4BB-/	4B-/
.	.	.	8g/	.	8b-/	.	.	.	.	.	.	.	.	.	.	.
.	.	.	8f/	.	8b-/	.	4BB-/	.	.	.	4f\	.	4a-\	.	4BB-/	4B-/
.	.	.	8f/J	.	8b-/J	.	.	.	.	.	.	.	.	.	.	.
.	.	.	4e-/	.	4b-\	.	4.E-\	-[r]nam	4B-\	-nam	4.e-\)	-nam	4g\	-rnam	4E-/	4E-/
.	.	.	4r	.	4r	.	.	.	4r	.	.	.	8r	.	4r	4r
.	.	.	.	.	.	.	(16G\LL	ae-	.	.	16g\LL	ae-	16ee-\LL	ae-	.	.
.	.	.	.	.	.	.	16A-\JJ)	.	.	.	16a-\JJ	.	16cc\JJ	.	.	.
!	!	!	!	!	!	!	!	!	!	!	!	!	!	!	!	!LO:LB:g=original
=8	=8	=8	=8	=8	=8	=8	=8	=8	=8	=8	=8	=8	=8	=8	=8	=8
!	!	!	!	!	!	!	!	!	!LO:TX:a:t=1	!	!	!	!	!	!	!
1r	.	.	1r	.	1r	.	4G\	-te-	1r	.	(4g\	-ter-	4b-\	-te-	0r	0r
.	.	.	.	.	.	.	4F\	.	.	.	4f\	.	4a-\	.	.	.
.	.	.	.	.	.	.	4E-\	-rnam	.	.	4e-\)	-nam	4g\	-rnam	.	.
.	.	.	.	.	.	.	4r	.	.	.	4r	.	4r	.	.	.
!LO:LB:g=original	!	!	!	!	!	!	!	!	!	!	!	!	!	!	!	!
=9	=9	=9	=9	=9	=9	=9	=9	=9	=9	=9	=9	=9	=9	=9	=9	=9
24A-\LL	.	f	24c/LL	.	24f/LL	.	4r	.	4r	.	4r	.	4r	.	.	.
24A-\	.	.	24c/	.	24f/	.	.	.	.	.	.	.	.	.	.	.
24A-\JJ	.	.	24c/JJ	.	24f/JJ	.	.	.	.	.	.	.	.	.	.	.
24A-\LL	.	p	24c/LL	.	24f/LL	.	.	.	.	.	.	.	.	.	.	.
24A-\	.	.	24c/	.	24f/	.	.	.	.	.	.	.	.	.	.	.
24A-\JJ	.	.	24c/JJ	.	24f/JJ	.	.	.	.	.	.	.	.	.	.	.
24A-\LL	.	f	24c/LL	.	24f/LL	.	8A-\	Do-	8F/	Do-	8c/	Do-	8f/	Do-	.	.
24A-\	.	.	24c/	.	24f/	.	.	.	.	.	.	.	.	.	.	.
24A-\JJ	.	.	24c/JJ	.	24f/JJ	.	.	.	.	.	.	.	.	.	.	.
24A-\LL	.	p	24c/LL	.	24f/LL	.	8A-\	-na	8F/	-na	8c/	-na	8f/	-na	.	.
24A-\	.	.	24c/	.	24f/	.	.	.	.	.	.	.	.	.	.	.
24A-\JJ	.	.	24c/JJ	.	24f/JJ	.	.	.	.	.	.	.	.	.	.	.
!	!	!	!LO:SIC:v:s=24An/LL	!	!	!	!LO:LB:g=original	!	!	!	!	!	!	!	!	!
24An\LL	.	.	24A-/LL	.	24f/LL	.	4An\	E-	4F/	E-	4c/	e-	4f/	E-	.	.
!	!	!	!LO:SIC:v:s=24A/	!	!	!	!	!	!	!	!	!	!	!	!	!
24A\	.	.	24A-/	.	24f/	.	.	.	.	.	.	.	.	.	.	.
!	!	!	!LO:SIC:v:s=24A/JJ	!	!	!	!	!	!	!	!	!	!	!	!	!
24A\JJ	.	.	24A-/JJ	.	24f/JJ	.	.	.	.	.	.	.	.	.	.	.
!	!	!	!LO:SIC:v:s=24A/LL	!	!LO:LB:g=original	!	!	!	!	!	!	!	!	!	!	!
24A\LL	.	.	24A-/LL	.	24f/LL	.	.	.	.	.	.	.	.	.	.	.
!	!	!	!LO:SIC:v:s=24A/	!	!	!	!	!	!	!	!	!	!	!	!	!
24A\	.	.	24A-/	.	24f/	.	.	.	.	.	.	.	.	.	.	.
!	!	!	!LO:SIC:v:s=24A/JJ	!	!	!	!	!	!	!	!	!	!	!	!	!
24A\JJ	.	.	24A-/JJ	.	24f/JJ	.	.	.	.	.	.	.	.	.	.	.
24A\LL	.	.	24c/LL	.	24f/LL	.	4A\	-is	4F/	-is	4c/	-is	4e-/	-is	.	.
24A\	.	.	24c/	.	24f/	.	.	.	.	.	.	.	.	.	.	.
24A\JJ	.	.	24c/JJ	.	24f/JJ	.	.	.	.	.	.	.	.	.	.	.
24A\LL	.	.	24c/LL	.	24e-/LL	.	.	.	.	.	.	.	.	.	.	.
24A\	.	.	24c/	.	24e-/	.	.	.	.	.	.	.	.	.	.	.
24A\JJ	.	.	24c/JJ	.	24e-/JJ	.	.	.	.	.	.	.	.	.	.	.
!	!	!	!	!	!	!	!	!	!	!	!	!	!	!	!LO:LB:g=original	!
=10	=10	=10	=10	=10	=10	=10	=10	=10	=10	=10	=10	=10	=10	=10	=10	=10
24B-\LL	.	.	24d/LL	.	24d/LL	.	4.B-\	Do-	4.F/	Re-	4.d\	Do-	4.d/	Re-	4BB-/	4B-/
24B-\	.	.	24d/	.	24d/	.	.	.	.	.	.	.	.	.	.	.
24B-\JJ	.	.	24d/JJ	.	24d/JJ	.	.	.	.	.	.	.	.	.	.	.
24B-\LL	.	.	24d/LL	.	24d/LL	.	.	.	.	.	.	.	.	.	.	.
24B-\	.	.	24d/	.	24d/	.	.	.	.	.	.	.	.	.	.	.
24B-\JJ	.	.	24d/JJ	.	24d/JJ	.	.	.	.	.	.	.	.	.	.	.
!	!	!	!LO:LB:g=original	!	!	!	!	!	!	!	!	!	!	!	!	!
24B-\LL	.	.	24d/LL	.	24f/LL	.	.	.	.	.	.	.	.	.	4BB-/	4B-/
24B-\	.	.	24d/	.	24f/	.	.	.	.	.	.	.	.	.	.	.
24B-\JJ	.	.	24d/JJ	.	24f/JJ	.	.	.	.	.	.	.	.	.	.	.
24B-\LL	.	.	24d/LL	.	24f/LL	.	8BB-/	-mi-	8F/	-qvi-	8d\	-mi-	8d/	-qvi-	.	.
24B-\	.	.	24d/	.	24f/	.	.	.	.	.	.	.	.	.	.	.
24B-\JJ	.	.	24d/JJ	.	24f/JJ	.	.	.	.	.	.	.	.	.	.	.
!LO:LB:g=original	!	!	!	!	!	!	!	!	!	!	!	!	!	!LO:SIC:v:s=4D/	!	!
24BB-/LL	.	.	24d/LL	.	24f/LL	.	2BB-/	-ne	2F/	-em	2d\	-ne	2d/	-em	4E-/	4B-/
24BB-/	.	.	24d/	.	24f/	.	.	.	.	.	.	.	.	.	.	.
24BB-/JJ	.	.	24d/JJ	.	24f/JJ	.	.	.	.	.	.	.	.	.	.	.
24BB-/LL	.	.	24d/LL	.	24f/LL	.	.	.	.	.	.	.	.	.	.	.
24BB-/	.	.	24d/	.	24f/	.	.	.	.	.	.	.	.	.	.	.
24BB-/JJ	.	.	24d/JJ	.	24f/JJ	.	.	.	.	.	.	.	.	.	.	.
24BB-/LL	.	.	24d/LL	.	24f/LL	.	.	.	.	.	.	.	.	.	4r	4r
24BB-/	.	.	24d/	.	24f/	.	.	.	.	.	.	.	.	.	.	.
24BB-/JJ	.	.	24d/JJ	.	24f/JJ	.	.	.	.	.	.	.	.	.	.	.
24BB-/LL	.	.	24d/LL	.	24f/LL	.	.	.	.	.	.	.	.	.	.	.
24BB-/	.	.	24d/	.	24f/	.	.	.	.	.	.	.	.	.	.	.
24BB-/JJ	.	.	24d/JJ	.	24f/JJ	.	.	.	.	.	.	.	.	.	.	.
!	!	!	!	!	!LO:LB:g=original	!	!	!	!	!	!LO:LB:g=original	!	!	!	!	!
=11	=11	=11	=11	=11	=11	=11	=11	=11	=11	=11	=11	=11	=11	=11	=11	=11
24A-X\LL	.	.	24c/LL	.	24f/LL	.	4r	.	4r	.	4r	.	4r	.	1r	1r
24A-\	.	.	24c/	.	24f/	.	.	.	.	.	.	.	.	.	.	.
24A-\JJ	.	.	24c/JJ	.	24f/JJ	.	.	.	.	.	.	.	.	.	.	.
24A-\LL	.	.	24c/LL	.	24f/LL	.	.	.	.	.	.	.	.	.	.	.
24A-\	.	.	24c/	.	24f/	.	.	.	.	.	.	.	.	.	.	.
24A-\JJ	.	.	24c/JJ	.	24f/JJ	.	.	.	.	.	.	.	.	.	.	.
!	!	!	!	!	!	!	!	!	!	!	!	!	!LO:LB:g=original	!	!	!
24A-\LL	.	.	24c/LL	.	24f/LL	.	8A-X\	Do-	8F/	Do-	8c/	Do-	8f/	Do-	.	.
24A-\	.	.	24c/	.	24f/	.	.	.	.	.	.	.	.	.	.	.
24A-\JJ	.	.	24c/JJ	.	24f/JJ	.	.	.	.	.	.	.	.	.	.	.
24A-\LL	.	.	24c/LL	.	24f/LL	.	8A-\	-na	8F/	-na	8c/	-na	8f/	-na	.	.
24A-\	.	.	24c/	.	24f/	.	.	.	.	.	.	.	.	.	.	.
24A-\JJ	.	.	24c/JJ	.	24f/JJ	.	.	.	.	.	.	.	.	.	.	.
24An\LL	.	.	24c/LL	.	24f/LL	.	4An\	E-	4F/	E-	4c/	e-	4f/	E-	.	.
24A\	.	.	24c/	.	24f/	.	.	.	.	.	.	.	.	.	.	.
24A\JJ	.	.	24c/JJ	.	24f/JJ	.	.	.	.	.	.	.	.	.	.	.
24A\LL	.	.	24c/LL	.	24f/LL	.	.	.	.	.	.	.	.	.	.	.
24A\	.	.	24c/	.	24f/	.	.	.	.	.	.	.	.	.	.	.
24A\JJ	.	.	24c/JJ	.	24f/JJ	.	.	.	.	.	.	.	.	.	.	.
24A\LL	.	.	24c/LL	.	24f/LL	.	4A\	-is	4F/	-is	4c/	-is	4e-/	-is	.	.
24A\	.	.	24c/	.	24f/	.	.	.	.	.	.	.	.	.	.	.
24A\JJ	.	.	24c/JJ	.	24f/JJ	.	.	.	.	.	.	.	.	.	.	.
24A\LL	.	.	24c/LL	.	24e-/LL	.	.	.	.	.	.	.	.	.	.	.
24A\	.	.	24c/	.	24e-/	.	.	.	.	.	.	.	.	.	.	.
24A\JJ	.	.	24c/JJ	.	24e-/JJ	.	.	.	.	.	.	.	.	.	.	.
!LO:LB:g=original	!	!	!LO:LB:g=original	!	!	!	!	!	!	!	!	!	!	!	!	!
=12	=12	=12	=12	=12	=12	=12	=12	=12	=12	=12	=12	=12	=12	=12	=12	=12
24B-\LL	.	.	24d/LL	.	24d/LL	.	4.B-\	Do-	4.F/	Re-	4.d\	Do-	4.d/	Re-	4BB-/	4B-/
24B-\	.	.	24d/	.	24d/	.	.	.	.	.	.	.	.	.	.	.
24B-\JJ	.	.	24d/JJ	.	24d/JJ	.	.	.	.	.	.	.	.	.	.	.
24B-\LL	.	.	24d/LL	.	24d/LL	.	.	.	.	.	.	.	.	.	.	.
24B-\	.	.	24d/	.	24d/	.	.	.	.	.	.	.	.	.	.	.
24B-\JJ	.	.	24d/JJ	.	24d/JJ	.	.	.	.	.	.	.	.	.	.	.
*tremolo	*	*	*	*	*	*	*	*	*	*	*	*	*	*	*	*
!LO:TX:t=P:problem:tremolo-dots	!	!	!	!	!	!	!	!	!	!	!	!	!	!	!	!
!LO:TX:t=P:problem:LO:N:vis=4	!	!	!	!	!	!	!	!	!	!	!	!	!	!	!	!
24B-\LL	.	.	24d/LL	.	24f/LL	.	.	.	.	.	.	.	.	.	4BB-/	4B-/
24B-\	.	.	24d/	.	24f/	.	.	.	.	.	.	.	.	.	.	.
24B-\JJ	.	.	24d/JJ	.	24f/JJ	.	.	.	.	.	.	.	.	.	.	.
!LO:TX:t=P:problem:tremolo-dots	!	!	!	!	!	!	!	!	!	!	!	!	!	!	!	!
!LO:TX:t=P:problem:LO:N:vis=4	!	!	!	!	!	!	!	!	!	!	!	!	!	!	!	!
24B-\LL	.	.	24d/LL	.	24f/LL	.	8BB-/	-mi-	8F/	-qvi-	8d\	-mi-	8d/	-qvi-	.	.
24B-\	.	.	24d/	.	24f/	.	.	.	.	.	.	.	.	.	.	.
24B-\JJ	.	.	24d/JJ	.	24f/JJ	.	.	.	.	.	.	.	.	.	.	.
*Xtremolo	*	*	*	*	*	*	*	*	*	*	*	*	*	*	*	*
!	!	!	!	!	!LO:LB:g=original	!	!	!	!	!	!	!	!	!	!	!
24BB-/LL	.	.	24d/LL	.	24f/LL	.	2BB-/	-ne	2F/	-em	2d\	-ne	2d/	-em	4BB-/	4B-/
24BB-/	.	.	24d/	.	24f/	.	.	.	.	.	.	.	.	.	.	.
24BB-/JJ	.	.	24d/JJ	.	24f/JJ	.	.	.	.	.	.	.	.	.	.	.
*tremolo	*	*	*	*	*	*	*	*	*	*	*	*	*	*	*	*
!LO:TX:t=P:problem:tremolo-dots	!	!	!	!	!	!	!	!	!	!	!	!	!	!	!	!
!LO:TX:t=P:problem:LO:N:vis=4	!	!	!	!	!	!	!	!	!	!	!	!	!	!	!	!
24BB-/LL	.	.	24d/LL	.	24f/LL	.	.	.	.	.	.	.	.	.	.	.
24BB-/	.	.	24d/	.	24f/	.	.	.	.	.	.	.	.	.	.	.
24BB-/JJ	.	.	24d/JJ	.	24f/JJ	.	.	.	.	.	.	.	.	.	.	.
!LO:TX:t=P:problem:tremolo-dots	!	!	!	!	!	!	!	!	!	!	!	!	!	!	!	!
!LO:TX:t=P:problem:LO:N:vis=4	!	!	!	!	!	!	!	!	!	!	!	!	!	!	!	!
24BB-/LL	.	.	24d/LL	.	24f/LL	.	.	.	.	.	.	.	.	.	4r	4r
24BB-/	.	.	24d/	.	24f/	.	.	.	.	.	.	.	.	.	.	.
24BB-/JJ	.	.	24d/JJ	.	24f/JJ	.	.	.	.	.	.	.	.	.	.	.
!LO:TX:t=P:problem:LO:N:vis=4	!	!	!	!	!	!	!	!	!	!	!	!	!	!	!	!
24BB-/LL	.	.	24d/LL	.	24f/LL	.	.	.	.	.	.	.	.	.	.	.
24BB-/	.	.	24d/	.	24f/	.	.	.	.	.	.	.	.	.	.	.
24BB-/JJ	.	.	24d/JJ	.	24f/JJ	.	.	.	.	.	.	.	.	.	.	.
*Xtremolo	*	*	*	*	*	*	*	*	*	*	*	*	*	*	*	*
=13	=13	=13	=13	=13	=13	=13	=13	=13	=13	=13	=13	=13	=13	=13	=13	=13
24BB-/LL	.	.	24c/LL	.	24g/LL	.	4r	.	4r	.	4r	.	4r	.	0r	0r
24BB-/	.	.	24c/	.	24g/	.	.	.	.	.	.	.	.	.	.	.
24BB-/JJ	.	.	24c/JJ	.	24g/JJ	.	.	.	.	.	.	.	.	.	.	.
24BB-/LL	.	.	24c/LL	.	24g/LL	.	.	.	.	.	.	.	.	.	.	.
24BB-/	.	.	24c/	.	24g/	.	.	.	.	.	.	.	.	.	.	.
24BB-/JJ	.	.	24c/JJ	.	24g/JJ	.	.	.	.	.	.	.	.	.	.	.
24BB-/LL	.	.	24c/LL	.	24a-/LL	.	4BB-/	et	4A-/	et	4d\	Et	4a-\	et	.	.
24BB-/	.	.	24c/	.	24a-/	.	.	.	.	.	.	.	.	.	.	.
24BB-/JJ	.	.	24c/JJ	.	24a-/JJ	.	.	.	.	.	.	.	.	.	.	.
24BB-/LL	.	.	24c/LL	.	24a-/LL	.	.	.	.	.	.	.	.	.	.	.
24BB-/	.	.	24c/	.	24a-/	.	.	.	.	.	.	.	.	.	.	.
24BB-/JJ	.	.	24c/JJ	.	24a-/JJ	.	.	.	.	.	.	.	.	.	.	.
!	!	!	!	!	!	!	!	!	!LO:LB:g=original	!	!	!	!	!	!	!
24BB-/LL	.	.	24c/LL	.	24a-/LL	.	4BB-/	lux	4A-/	lux	4d\	lux	4a-\	lux	.	.
24BB-/	.	.	24c/	.	24a-/	.	.	.	.	.	.	.	.	.	.	.
24BB-/JJ	.	.	24c/JJ	.	24a-/JJ	.	.	.	.	.	.	.	.	.	.	.
24BB-/LL	.	.	24c/LL	.	24a-/LL	.	.	.	.	.	.	.	.	.	.	.
24BB-/	.	.	24c/	.	24a-/	.	.	.	.	.	.	.	.	.	.	.
24BB-/JJ	.	.	24c/JJ	.	24a-/JJ	.	.	.	.	.	.	.	.	.	.	.
!	!	!	!LO:LB:g=original	!	!	!	!LO:LB:g=original	!	!	!	!	!	!	!	!	!
24BB-/LL	.	.	24c/LL	.	24a-/LL	.	4BB-/	per-	4A-/	per-	4d\	per-	4a-\	per-	.	.
24BB-/	.	.	24c/	.	24a-/	.	.	.	.	.	.	.	.	.	.	.
24BB-/JJ	.	.	24c/JJ	.	24a-/JJ	.	.	.	.	.	.	.	.	.	.	.
24BB-/LL	.	.	24c/LL	.	24a-/LL	.	.	.	.	.	.	.	.	.	.	.
24BB-/	.	.	24c/	.	24a-/	.	.	.	.	.	.	.	.	.	.	.
24BB-/JJ	.	.	24c/JJ	.	24a-/JJ	.	.	.	.	.	.	.	.	.	.	.
!LO:LB:g=original	!	!	!	!	!LO:LB:g=original	!	!	!	!	!	!	!	!	!	!	!
=14	=14	=14	=14	=14	=14	=14	=14	=14	=14	=14	=14	=14	=14	=14	=14	=14
24BB-/LL	.	.	24f/LL	.	24a-/LL	.	4BB-/	-pe-	8A-/	-pe-	8d\	-pe-	8a-\	-pe-	.	.
24BB-/	.	.	24f/	.	24a-/	.	.	.	.	.	.	.	.	.	.	.
24BB-/JJ	.	.	24f/JJ	.	24a-/JJ	.	.	.	.	.	.	.	.	.	.	.
24BB-/LL	.	.	24f/LL	.	24a-/LL	.	.	.	8A-/	-tu-	8d\	-tu-	8a-\	-tu-	.	.
24BB-/	.	.	24f/	.	24a-/	.	.	.	.	.	.	.	.	.	.	.
24BB-/JJ	.	.	24f/JJ	.	24a-/JJ	.	.	.	.	.	.	.	.	.	.	.
24BB-/LL	.	.	24f/LL	.	24a-/LL	.	8BB-/	-tu-	4A-/	-a	4d\	-a	4a-\	-a	.	.
24BB-/	.	.	24f/	.	24a-/	.	.	.	.	.	.	.	.	.	.	.
24BB-/JJ	.	.	24f/JJ	.	24a-/JJ	.	.	.	.	.	.	.	.	.	.	.
24BB-/LL	.	.	24f/LL	.	24a-/LL	.	8BB-/	-a	.	.	.	.	.	.	.	.
24BB-/	.	.	24f/	.	24a-/	.	.	.	.	.	.	.	.	.	.	.
24BB-/JJ	.	.	24f/JJ	.	24a-/JJ	.	.	.	.	.	.	.	.	.	.	.
24EE-/LL	.	.	24e-/LL	.	24g/LL	.	4E-\	Lu-	4B-\	Lu-	4g\	Lu-	4g\	lu-	.	.
24EE-/	.	.	24e-/	.	24g/	.	.	.	.	.	.	.	.	.	.	.
24EE-/JJ	.	.	24e-/JJ	.	24g/JJ	.	.	.	.	.	.	.	.	.	.	.
24E-\LL	.	.	24e-/LL	.	24g/LL	.	.	.	.	.	.	.	.	.	.	.
24E-\	.	.	24e-/	.	24g/	.	.	.	.	.	.	.	.	.	.	.
24E-\JJ	.	.	24e-/JJ	.	24g/JJ	.	.	.	.	.	.	.	.	.	.	.
24A-\LL	.	.	24a-/LL	.	24cc\LL	.	8A-\	-ce-	8c\	-ce-	8a-\	-ce-	8cc\	-ce-	.	.
24A-\	.	.	24a-/	.	24cc\	.	.	.	.	.	.	.	.	.	.	.
24A-\JJ	.	.	24a-/JJ	.	24cc\JJ	.	.	.	.	.	.	.	.	.	.	.
24A-\LL	.	.	24cc/LL	.	24a-\LL	.	8A-\	-at	8c\	-at	8f\	-at	8a-\	-at	.	.
24A-\	.	.	24cc/	.	24a-\	.	.	.	.	.	.	.	.	.	.	.
24A-\JJ	.	.	24cc/JJ	.	24a-\JJ	.	.	.	.	.	.	.	.	.	.	.
=15	=15	=15	=15	=15	=15	=15	=15	=15	=15	=15	=15	=15	=15	=15	=15	=15
24B-\LL	.	.	24e-/LL	.	24g/LL	.	4B-\	E-	4B-\	E-	4e-\	e-	4g/	e-	4e-\	4g\
24B-\	.	.	24e-/	.	24g/	.	.	.	.	.	.	.	.	.	.	.
24B-\JJ	.	.	24e-/JJ	.	24g/JJ	.	.	.	.	.	.	.	.	.	.	.
24B-\LL	.	.	24e-/LL	.	24g/LL	.	.	.	.	.	.	.	.	.	.	.
24B-\	.	.	24e-/	.	24g/	.	.	.	.	.	.	.	.	.	.	.
24B-\JJ	.	.	24e-/JJ	.	24g/JJ	.	.	.	.	.	.	.	.	.	.	.
24BB-/LL	.	.	24d/LL	.	24f/LL	.	4BB-/	-is	4B-\	-is	4d\	-is	4f/	-is.	4B-/	4f\
24BB-/	.	.	24d/	.	24f/	.	.	.	.	.	.	.	.	.	.	.
24BB-/JJ	.	.	24d/JJ	.	24f/JJ	.	.	.	.	.	.	.	.	.	.	.
!	!	!	!LO:LB:g=original	!	!	!	!	!	!	!	!	!	!	!	!	!
24BB-/LL	.	.	24d/LL	.	24f/LL	.	.	.	.	.	.	.	.	.	.	.
24BB-/	.	.	24d/	.	24f/	.	.	.	.	.	.	.	.	.	.	.
24BB-/JJ	.	.	24d/JJ	.	24f/JJ	.	.	.	.	.	.	.	.	.	.	.
!LO:LB:g=original	!	!	!	!	!	!	!	!	!	!	!	!	!	!	!	!
24A-\LL	.	.	24c/LL	.	24f/LL	.	2r	.	2r	.	2r	.	2r	.	2r	2r
24A-\	.	.	24c/	.	24f/	.	.	.	.	.	.	.	.	.	.	.
24A-\JJ	.	.	24c/JJ	.	24f/JJ	.	.	.	.	.	.	.	.	.	.	.
*tremolo	*	*	*	*	*	*	*	*	*	*	*	*	*	*	*	*
!LO:TX:t=P:problem:tremolo-dots	!	!	!	!	!	!	!	!	!	!	!	!	!	!	!	!
!LO:TX:t=P:problem:LO:N:vis=4	!	!	!	!	!LO:LB:g=original	!	!	!	!	!	!	!	!	!	!	!
24A-\LL	.	.	24c/LL	.	24f/LL	.	.	.	.	.	.	.	.	.	.	.
24A-\	.	.	24c/	.	24f/	.	.	.	.	.	.	.	.	.	.	.
24A-\JJ	.	.	24c/JJ	.	24f/JJ	.	.	.	.	.	.	.	.	.	.	.
!LO:TX:t=P:problem:tremolo-dots	!	!	!	!	!	!	!	!	!	!	!	!	!	!	!	!
!LO:TX:t=P:problem:LO:N:vis=4	!	!	!	!	!	!	!	!	!	!	!	!	!	!	!	!
24A-\LL	.	.	24c/LL	.	24f/LL	.	.	.	.	.	.	.	.	.	.	.
24A-\	.	.	24c/	.	24f/	.	.	.	.	.	.	.	.	.	.	.
24A-\JJ	.	.	24c/JJ	.	24f/JJ	.	.	.	.	.	.	.	.	.	.	.
!LO:TX:t=P:problem:tremolo-dots	!	!	!	!	!	!	!	!	!	!	!	!	!	!	!	!
!LO:TX:t=P:problem:LO:N:vis=4	!	!	!	!	!	!	!	!	!	!	!	!	!	!	!	!
24A-\LL	.	.	24c/LL	.	24f/LL	.	.	.	.	.	.	.	.	.	.	.
24A-\	.	.	24c/	.	24f/	.	.	.	.	.	.	.	.	.	.	.
24A-\JJ	.	.	24c/JJ	.	24f/JJ	.	.	.	.	.	.	.	.	.	.	.
*Xtremolo	*	*	*	*	*	*	*	*	*	*	*	*	*	*	*	*
!	!	!	!	!	!	!	!	!	!	!	!LO:LB:g=original	!	!	!	!	!
=16	=16	=16	=16	=16	=16	=16	=16	=16	=16	=16	=16	=16	=16	=16	=16	=16
24A-\LL	.	.	24a-/LL	.	24cc\LL	.	4A-\	lu-	4c\	lu-	4a-\	lu-	4cc\	lu-	2r	2r
24A-\	.	.	24a-/	.	24cc\	.	.	.	.	.	.	.	.	.	.	.
24A-\JJ	.	.	24a-/JJ	.	24cc\JJ	.	.	.	.	.	.	.	.	.	.	.
24A-\LL	.	.	24a-/LL	.	24cc\LL	.	.	.	.	.	.	.	.	.	.	.
24A-\	.	.	24a-/	.	24cc\	.	.	.	.	.	.	.	.	.	.	.
24A-\JJ	.	.	24a-/JJ	.	24cc\JJ	.	.	.	.	.	.	.	.	.	.	.
24A-\LL	.	.	24f/LL	.	24a-/LL	.	8A-\	-ce-	8c\	-ce-	8f\	-ce-	8a-\	-ce-	.	.
24A-\	.	.	24f/	.	24a-/	.	.	.	.	.	.	.	.	.	.	.
24A-\JJ	.	.	24f/JJ	.	24a-/JJ	.	.	.	.	.	.	.	.	.	.	.
24A-\LL	.	.	24f/LL	.	24a-/LL	.	8A-\	-at	8c\	-at	8f\	-at	8a-\	-at	.	.
24A-\	.	.	24f/	.	24a-/	.	.	.	.	.	.	.	.	.	.	.
24A-\JJ	.	.	24f/JJ	.	24a-/JJ	.	.	.	.	.	.	.	.	.	.	.
!	!	!	!	!	!	!	!	!	!	!	!	!	!LO:LB:g=original	!	!	!
24B-\LL	.	.	24e-/LL	.	24g/LL	.	2B-\	E-	2c\	e-	(2e-\	e-	2g\	e-	2e-\	2g\
24B-\	.	.	24e-/	.	24g/	.	.	.	.	.	.	.	.	.	.	.
24B-\JJ	.	.	24e-/JJ	.	24g/JJ	.	.	.	.	.	.	.	.	.	.	.
24B-\LL	.	.	24e-/LL	.	24g/LL	.	.	.	.	.	.	.	.	.	.	.
24B-\	.	.	24e-/	.	24g/	.	.	.	.	.	.	.	.	.	.	.
24B-\JJ	.	.	24e-/JJ	.	24g/JJ	.	.	.	.	.	.	.	.	.	.	.
24B-\LL	.	.	24e-/LL	.	24g/LL	.	.	.	.	.	.	.	.	.	.	.
24B-\	.	.	24e-/	.	24g/	.	.	.	.	.	.	.	.	.	.	.
24B-\JJ	.	.	24e-/JJ	.	24g/JJ	.	.	.	.	.	.	.	.	.	.	.
24B-\LL	.	.	24e-/LL	.	24g/LL	.	.	.	.	.	.	.	.	.	.	.
24B-\	.	.	24e-/	.	24g/	.	.	.	.	.	.	.	.	.	.	.
24B-\JJ	.	.	24e-/JJ	.	24g/JJ	.	.	.	.	.	.	.	.	.	.	.
!	!	!	!LO:LB:g=original	!	!	!	!	!	!	!	!	!	!	!	!	!
=17	=17	=17	=17	=17	=17	=17	=17	=17	=17	=17	=17	=17	=17	=17	=17	=17
24BB-/LL	.	.	24d/LL	.	24f/LL	.	2BB-/	.	2B-\	-is	2d\)	.	2f/	.	2B-/	2f\
24BB-/	.	.	24d/	.	24f/	.	.	.	.	.	.	.	.	.	.	.
24BB-/JJ	.	.	24d/JJ	.	24f/JJ	.	.	.	.	.	.	.	.	.	.	.
!LO:LB:g=original	!	!	!	!	!	!	!	!	!	!	!	!	!	!	!	!
24BB-/LL	.	.	24d/LL	.	24f/LL	.	.	.	.	.	.	.	.	.	.	.
24BB-/	.	.	24d/	.	24f/	.	.	.	.	.	.	.	.	.	.	.
24BB-/JJ	.	.	24d/JJ	.	24f/JJ	.	.	.	.	.	.	.	.	.	.	.
!	!	!	!	!	!LO:LB:g=original	!	!	!	!	!	!	!	!	!	!	!
24BB-/LL	.	.	24dLL 24B-/	.	24f/LL	.	.	.	.	.	.	.	.	.	.	.
24BB-/	.	.	24d 24B-/	.	24f/	.	.	.	.	.	.	.	.	.	.	.
24BB-/JJ	.	.	24dJJ 24B-/	.	24f/JJ	.	.	.	.	.	.	.	.	.	.	.
24BB-/LL	.	.	24dLL 24B-/	.	24f/LL	.	.	.	.	.	.	.	.	.	.	.
24BB-/	.	.	24d 24B-/	.	24f/	.	.	.	.	.	.	.	.	.	.	.
!	!	!	!LO:TX:t=P:problem:wykreślony fragment	!	!	!	!	!	!	!	!	!	!	!	!	!
24BB-/JJ	.	.	24dJJ 24B-/	.	24f/JJ	.	.	.	.	.	.	.	.	.	.	.
!LO:TX:t=P:problem:mixed beam	!	!	!	!	!	!	!	!	!	!	!	!	!	!	!	!
8E-\L	.	.	8G/L	.	8e-/L	.	4E-\	-is	4B-\	.	4e-\	-is	4e-/	-is.	8B-L 8G/	8e-\L
8EE-/J	.	.	8G/J	.	8e-/J	.	.	.	.	.	.	.	.	.	8B- 8G/	8e-\J
!	!	!	!	!	!	!	!	!	!	!	!	!	!	!	!	!LO:LB:g=original
4EE-/	.	.	4G/	.	4e-/	.	4r	.	4r	.	4r	.	4r	.	8B- 8G/	4e-\
.	.	.	.	.	.	.	.	.	.	.	.	.	.	.	8B-J 8G/	.
!	!	!	!	!	!	!	!	!	!	!	!	!	!	!	!LO:LB:g=original	!
=18	=18	=18	=18	=18	=18	=18	=18	=18	=18	=18	=18	=18	=18	=18	=18	=18
!	!	!	!LO:TX:t=P:problem:zbędne 24g w pierwszej grupie w takcie	!	!	!	!	!	!	!	!	!	!	!	!	!
!	!	!	!LO:TX:t=dis	!	!	!	!	!	!	!	!	!	!LO:TX:a:t=3.	!	!	!
24E-\LL	.	.	24gLL 24e-/	.	24g-X/LL	.	0r	.	00r	.	0r	.	0r	.	0r	0r
24E-\	.	.	24g 24e-/	.	24g-/	.	.	.	.	.	.	.	.	.	.	.
24E-\JJ	.	.	24gJJ 24e-/	.	24g-/JJ	.	.	.	.	.	.	.	.	.	.	.
24E-\LL	.	.	24e-/LL	.	24g-/LL	.	.	.	.	.	.	.	.	.	.	.
24E-\	.	.	24e-/	.	24g-/	.	.	.	.	.	.	.	.	.	.	.
24E-\JJ	.	.	24e-/JJ	.	24g-/JJ	.	.	.	.	.	.	.	.	.	.	.
24E-\LL	.	.	24e-/LL	.	24g-/LL	.	.	.	.	.	.	.	.	.	.	.
24E-\	.	.	24e-/	.	24g-/	.	.	.	.	.	.	.	.	.	.	.
24E-\JJ	.	.	24e-/JJ	.	24g-/JJ	.	.	.	.	.	.	.	.	.	.	.
24E-\LL	.	.	24e-/LL	.	24g-/LL	.	.	.	.	.	.	.	.	.	.	.
24E-\	.	.	24e-/	.	24g-/	.	.	.	.	.	.	.	.	.	.	.
24E-\JJ	.	.	24e-/JJ	.	24g-/JJ	.	.	.	.	.	.	.	.	.	.	.
24Bn\LL	.	.	24e-/LL	.	24g-/LL	.	.	.	.	.	.	.	.	.	.	.
24B\	.	.	24e-/	.	24g-/	.	.	.	.	.	.	.	.	.	.	.
24B\JJ	.	.	24e-/JJ	.	24g-/JJ	.	.	.	.	.	.	.	.	.	.	.
24B\LL	.	.	24e-/LL	.	24g-/LL	.	.	.	.	.	.	.	.	.	.	.
24B\	.	.	24e-/	.	24g-/	.	.	.	.	.	.	.	.	.	.	.
24B\JJ	.	.	24e-/JJ	.	24g-/JJ	.	.	.	.	.	.	.	.	.	.	.
!	!	!	!LO:LB:g=original	!	!	!	!	!	!	!	!	!	!	!	!	!
24An\LL	.	.	24e-/LL	.	24g-/LL	.	.	.	.	.	.	.	.	.	.	.
24A\	.	.	24e-/	.	24g-/	.	.	.	.	.	.	.	.	.	.	.
24A\JJ	.	.	24e-/JJ	.	24g-/JJ	.	.	.	.	.	.	.	.	.	.	.
!LO:LB:g=original	!	!	!	!	!	!	!	!	!	!	!	!	!	!	!	!
24A\LL	.	.	24e-/LL	.	24g-/LL	.	.	.	.	.	.	.	.	.	.	.
24A\	.	.	24e-/	.	24g-/	.	.	.	.	.	.	.	.	.	.	.
24A\JJ	.	.	24e-/JJ	.	24g-/JJ	.	.	.	.	.	.	.	.	.	.	.
=19	=19	=19	=19	=19	=19	=19	=19	=19	=19	=19	=19	=19	=19	=19	=19	=19
!	!	!	!	!	!LO:SIC:s:v=24g-/LL	!	!	!	!	!	!	!	!	!	!	!
24B-X\LL	.	.	24e-/LL	.	24g/LL	.	.	.	.	.	.	.	.	.	.	.
!	!	!	!	!	!LO:SIC:s:v=24g-/	!	!	!	!	!	!	!	!	!	!	!
24B-\	.	.	24e-/	.	24g/	.	.	.	.	.	.	.	.	.	.	.
!	!	!	!	!	!LO:SIC:s:v=24g-/JJ	!	!	!	!	!	!	!	!	!	!	!
24B-\JJ	.	.	24e-/JJ	.	24g/JJ	.	.	.	.	.	.	.	.	.	.	.
!	!	!	!	!	!LO:LB:g=original	!	!	!	!	!	!	!	!	!	!	!
!	!	!	!LO:TX:b:t=dis	!	!LO:SIC:s:v=24g-/LL	!	!	!	!	!	!	!	!	!	!	!
!	!	!	!LO:SIC:v:s=24e-/LL	!	!	!	!	!	!	!	!	!	!	!	!	!
24B-\LL	.	.	24d/LL	.	24g/LL	.	.	.	.	.	.	.	.	.	.	.
!	!	!	!LO:SIC:v:s=24e-/	!	!LO:SIC:s:v=24g-/	!	!	!	!	!	!	!	!	!	!	!
24B-\	.	.	24d/	.	24g/	.	.	.	.	.	.	.	.	.	.	.
!	!	!	!LO:SIC:v:s=24e-/JJ	!	!LO:SIC:s:v=24g-/JJ	!	!	!	!	!	!	!	!	!	!	!
24B-\JJ	.	.	24d/JJ	.	24g/JJ	.	.	.	.	.	.	.	.	.	.	.
24BB-/LL	.	.	24d/LL	.	24f/LL	.	.	.	.	.	.	.	.	.	.	.
24BB-/	.	.	24d/	.	24f/	.	.	.	.	.	.	.	.	.	.	.
24BB-/JJ	.	.	24d/JJ	.	24f/JJ	.	.	.	.	.	.	.	.	.	.	.
24BB-/LL	.	.	24d/LL	.	24f/LL	.	.	.	.	.	.	.	.	.	.	.
24BB-/	.	.	24d/	.	24f/	.	.	.	.	.	.	.	.	.	.	.
24BB-/JJ	.	.	24d/JJ	.	24f/JJ	.	.	.	.	.	.	.	.	.	.	.
24E-\LL	.	.	24e-/LL	.	24g-X/LL	.	.	.	.	.	.	.	.	.	.	.
24E-\	.	.	24e-/	.	24g-/	.	.	.	.	.	.	.	.	.	.	.
24E-\JJ	.	.	24e-/JJ	.	24g-/JJ	.	.	.	.	.	.	.	.	.	.	.
24E-\LL	.	.	24e-/LL	.	24g-/LL	.	.	.	.	.	.	.	.	.	.	.
24E-\	.	.	24e-/	.	24g-/	.	.	.	.	.	.	.	.	.	.	.
24E-\JJ	.	.	24e-/JJ	.	24g-/JJ	.	.	.	.	.	.	.	.	.	.	.
24E-\LL	.	.	24e-/LL	.	24g-/LL	.	.	.	.	.	.	.	.	.	.	.
24E-\	.	.	24e-/	.	24g-/	.	.	.	.	.	.	.	.	.	.	.
24E-\JJ	.	.	24e-/JJ	.	24g-/JJ	.	.	.	.	.	.	.	.	.	.	.
24E-\LL	.	.	24e-/LL	.	24g-/LL	.	.	.	.	.	.	.	.	.	.	.
24E-\	.	.	24e-/	.	24g-/	.	.	.	.	.	.	.	.	.	.	.
24E-\JJ	.	.	24e-/JJ	.	24g-/JJ	.	.	.	.	.	.	.	.	.	.	.
=20	=20	=20	=20	=20	=20	=20	=20	=20	=20	=20	=20	=20	=20	=20	=20	=20
!	!	!	!	!	!LO:SIC:s:v=24g-/LL	!	!	!	!	!	!	!	!	!	!	!
24Bn\LL	.	.	24e-/LL	.	24g/LL	.	1r	.	.	.	1r	.	1r	.	2r	2r
!	!	!	!	!	!LO:SIC:s:v=24g-/	!	!	!	!	!	!	!	!	!	!	!
24B\	.	.	24e-/	.	24g/	.	.	.	.	.	.	.	.	.	.	.
!	!	!	!	!	!LO:SIC:s:v=24g-/JJ	!	!	!	!	!	!	!	!	!	!	!
24B\JJ	.	.	24e-/JJ	.	24g/JJ	.	.	.	.	.	.	.	.	.	.	.
!	!	!	!	!	!LO:SIC:s:v=24g-/LL	!	!	!	!	!	!	!	!	!	!	!
24B\LL	.	.	24e-/LL	.	24g/LL	.	.	.	.	.	.	.	.	.	.	.
!	!	!	!	!	!LO:SIC:s:v=24g-/	!	!	!	!	!	!	!	!	!	!	!
24B\	.	.	24e-/	.	24g/	.	.	.	.	.	.	.	.	.	.	.
!	!	!	!	!	!LO:SIC:s:v=24g-/JJ	!	!	!	!	!	!	!	!	!	!	!
24B\JJ	.	.	24e-/JJ	.	24g/JJ	.	.	.	.	.	.	.	.	.	.	.
!LO:LB:g=original	!	!	!	!	!LO:SIC:s:v=24g-/LL	!	!	!	!	!	!	!	!	!	!	!
24An\LL	.	.	24e-/LL	.	24g/LL	.	.	.	.	.	.	.	.	.	.	.
!	!	!	!	!	!LO:SIC:s:v=24g-/	!	!	!	!	!	!	!	!	!	!	!
24A\	.	.	24e-/	.	24g/	.	.	.	.	.	.	.	.	.	.	.
!	!	!	!	!	!LO:SIC:s:v=24g-/JJ	!	!	!	!	!	!	!	!	!	!	!
24A\JJ	.	.	24e-/JJ	.	24g/JJ	.	.	.	.	.	.	.	.	.	.	.
!	!	!	!LO:LB:g=original	!	!LO:SIC:s:v=24g-/LL	!	!	!	!	!	!	!	!	!	!	!
24A\LL	.	.	24e-/LL	.	24g/LL	.	.	.	.	.	.	.	.	.	.	.
!	!	!	!	!	!LO:SIC:s:v=24g-/	!	!	!	!	!	!	!	!	!	!	!
24A\	.	.	24e-/	.	24g/	.	.	.	.	.	.	.	.	.	.	.
!	!	!	!	!	!LO:SIC:s:v=24g-/JJ	!	!	!	!	!	!	!	!	!	!	!
24A\JJ	.	.	24e-/JJ	.	24g/JJ	.	.	.	.	.	.	.	.	.	.	.
!	!	!	!	!	!LO:SIC:s:v=24g-/LL	!	!	!	!	!	!	!	!	!	!	!
24B-X\LL	.	.	24e-/LL	.	24g/LL	.	.	.	.	.	.	.	.	.	4r	4r
!	!	!	!	!	!LO:SIC:s:v=24g-/	!	!	!	!	!	!	!	!	!	!	!
24B-\	.	.	24e-/	.	24g/	.	.	.	.	.	.	.	.	.	.	.
!	!	!	!	!	!LO:SIC:s:v=24g-/JJ	!	!	!	!	!	!	!	!	!	!	!
24B-\JJ	.	.	24e-/JJ	.	24g/JJ	.	.	.	.	.	.	.	.	.	.	.
!	!	!	!	!	!LO:SIC:s:v=24g-/LL	!	!	!	!	!	!	!	!	!	!	!
24B-\LL	.	.	24e-/LL	.	24g/LL	.	.	.	.	.	.	.	.	.	.	.
!	!	!	!	!	!LO:SIC:s:v=24g-/	!	!	!	!	!	!	!	!	!	!	!
24B-\	.	.	24e-/	.	24g/	.	.	.	.	.	.	.	.	.	.	.
!	!	!	!	!	!LO:SIC:s:v=24g-/JJ	!	!	!	!	!	!	!	!	!	!	!
24B-\JJ	.	.	24e-/JJ	.	24g/JJ	.	.	.	.	.	.	.	.	.	.	.
!	!	!	!LO:TX:t=P:problem:zbędne 24e- w ostatnich dwóch grupach w takcie	!	!	!	!	!	!	!	!	!	!	!	!	!
!	!	!	!LO:TX:b:t=d	!	!LO:LB:g=original	!	!	!	!	!	!	!	!	!	!	!
24BB-/LL	.	.	24e-LL 24d/	.	24f/LL	.	.	.	.	.	.	.	.	.	4B-/	4f\
24BB-/	.	.	24e- 24d/	.	24f/	.	.	.	.	.	.	.	.	.	.	.
24BB-/JJ	.	.	24e-JJ 24d/	.	24f/JJ	.	.	.	.	.	.	.	.	.	.	.
!	!	!	!LO:TX:b:t=d	!	!	!	!	!	!	!	!	!	!	!	!	!
24BB-/LL	.	.	24e-LL 24d/	.	24f/LL	.	.	.	.	.	.	.	.	.	.	.
24BB-/	.	.	24e- 24d/	.	24f/	.	.	.	.	.	.	.	.	.	.	.
24BB-/JJ	.	.	24e-JJ 24d/	.	24f/JJ	.	.	.	.	.	.	.	.	.	.	.
!	!	!	!	!	!	!	!LO:LB:g=original	!	!	!	!	!	!	!	!	!
=21	=21	=21	=21	=21	=21	=21	=21	=21	=21	=21	=21	=21	=21	=21	=21	=21
4E-\	.	.	4e-/	.	4gn/	.	4r	.	.	.	4r	.	4r	.	4G/	8f\L
.	.	.	.	.	.	.	.	.	.	.	.	.	.	.	.	8e-\J
!	!	!	!	!	!	!	!	!	!	!	!	!	!	!	!LO:N:vis=4	!
4r	.	.	8r	.	8r	.	8r	.	.	.	8r	.	8r	.	8r	4r
!	!	!	!	!	!	!	!	!	!	!	!	!	!	!	!LO:N:vis=4	!
.	.	.	16g/LL	.	16g/LL	.	16G\LL	Per-	.	.	16g\LL	per-	16ee-\LL	per-	8r	.
.	.	.	16a-/JJ	.	16a-/JJ	.	16A-\JJ	.	.	.	16a-\JJ	.	16cc\JJ	.	.	.
2r	.	.	8g/L	.	8g/L	.	4G\	-pe-	.	.	4g\	-pe-	4b-\	-pe-	2r	2r
.	.	.	8g/	.	8g/	.	.	.	.	.	.	.	.	.	.	.
.	.	.	8f/	.	8f/	.	4F\	-tu-	.	.	4f\	-tu-	4a-\	-tu-	.	.
.	.	.	8f/J	.	8f/J	.	.	.	.	.	.	.	.	.	.	.
=22	=22	=22	=22	=22	=22	=22	=22	=22	=22	=22	=22	=22	=22	=22	=22	=22
1r	.	.	4e-/	.	4e-/	.	4E-\	-a	4r	.	4e-\	-a	4g\	-a	1r	1r
.	.	.	8r	.	8r	.	8r	.	8r	.	8r	.	8r	.	.	.
.	.	.	8f/	.	8b-\	.	8B-\	per-	8B-\	Per-	8f\	per-	8dd\	per-	.	.
!	!	!	!	!	!	!	!	!	!LO:SIC:v:s=16B-\	!	!	!	!	!	!	!
.	.	.	16g/LL	.	16b-\LL	.	16E-\	-pe-	16c\	-pe-	16g\	-pe-	16ee-\	-pe-	.	.
.	.	.	16g/J	.	16b-\J	.	16E-\	-tu-	16B-\	-tu-	16g\	-tu-	16ee-\	-tu-	.	.
!	!	!	!	!	!	!	!	!	!LO:N:vis=4	!	!	!	!	!	!	!
.	.	.	8g/J	.	8b-\J	.	8E-\	-a	8B-\	-a	8g\	-a	8ee-\	-a	.	.
.	.	.	4r	.	4r	.	4r	.	4r	.	4r	.	4r	.	.	.
!LO:LB:g=original	!	!	!LO:LB:g=original	!	!LO:LB:g=original	!	!	!	!LO:LB:g=original	!	!	!	!	!	!	!
=23||	=23||	=23||	=23||	=23||	=23||	=23||	=23||	=23||	=23||	=23||	=23||	=23||	=23||	=23||	=23||	=23||
*k[a-e-b-]	*	*	*k[e-b-a-]	*	*k[e-b-a-]	*	*k[b-e-a-]	*	*k[a-b-e-]	*	*k[b-e-a-]	*	*k[b-e-a-]	*	*k[b-e-a-]	*k[b-e-a-]
*M2/4	*	*	*M2/4	*	*M2/4	*	*M2/4	*	*M2/4	*	*M2/4	*	*M2/4	*	*M2/4	*M2/4
!	!	!	!LO:TX:b:t=Tedecet	!	!	!	!	!	!	!	!	!	!	!	!	!
!LO:TX:t=P:problem:znaki: A- zamiast AA-	!	!	!LO:TX:a:t=Andante	!	!LO:TX:a:t=Andante Solo	!	!	!	!	!	!	!	!	!	!	!
!LO:TX:b:t=Tedecet	!	!	!	!	!	!	!LO:TX:a:t=Te decet Tacet	!	!	!	!LO:TX:a:t=Te Decet\nTacet	!	!LO:TX:a:t=Tedecet\nTacet	!	!LO:TX:a:t=Tedecet Tacet	!LO:TX:a:t=Tedecet Tacet
!	!	!	!	!	!	!	!	!	!LO:N:vis=00	!	!	!	!	!	!	!
8C/L	.	.	8e-/L	.	8cc/L	.	2ryy	.	0r	.	2ryy	.	2ryy	.	2ryy	2ryy
8C/	.	.	8e-/	.	16.g/L	.	.	.	.	.	.	.	.	.	.	.
.	.	.	.	.	32a-/JJk	.	.	.	.	.	.	.	.	.	.	.
8BBn/	.	.	8d/	.	16.g/LL	.	.	.	.	.	.	.	.	.	.	.
.	.	.	.	.	32f/K	.	.	.	.	.	.	.	.	.	.	.
8BB/J	.	.	8d/J	.	16.e-/	.	.	.	.	.	.	.	.	.	.	.
.	.	.	.	.	32d/JJk	.	.	.	.	.	.	.	.	.	.	.
=24	=24	=24	=24	=24	=24	=24	=24	=24	=24	=24	=24	=24	=24	=24	=24	=24
!LO:TX:t=P:problem:mixed beam	!	!	!	!	!	!	!	!	!	!	!	!	!	!	!	!
8AA-/L	.	.	24c/LL	.	24c/LL	.	2ryy	.	.	.	2ryy	.	2ryy	.	2ryy	2ryy
!	!	!	!LO:SIC:v:s=24Bn/	!	!	!	!	!	!	!	!	!	!	!	!	!
.	.	.	24B-/	.	24G/	.	.	.	.	.	.	.	.	.	.	.
.	.	.	24c/J	.	24c/J	.	.	.	.	.	.	.	.	.	.	.
8E-\	.	.	8G/J	.	8G/J	.	.	.	.	.	.	.	.	.	.	.
8E-\	.	.	8G/L	.	8r	.	.	.	.	.	.	.	.	.	.	.
8E-\J	.	.	8G/J	.	16c/LL	.	.	.	.	.	.	.	.	.	.	.
.	.	.	.	.	16e-/JJ	.	.	.	.	.	.	.	.	.	.	.
=25	=25	=25	=25	=25	=25	=25	=25	=25	=25	=25	=25	=25	=25	=25	=25	=25
8F\L	.	.	8A-/L	.	16d/LL	.	2ryy	.	.	.	2ryy	.	2ryy	.	2ryy	2ryy
.	.	.	.	.	16c/	.	.	.	.	.	.	.	.	.	.	.
8F\	.	.	8A-/	.	16d/	.	.	.	.	.	.	.	.	.	.	.
.	.	.	.	.	16a-/JJ	.	.	.	.	.	.	.	.	.	.	.
!	!	!	!	!	!LO:TX:t=P:problem:klamra łukowa i  nr dopisane inną ręką	!	!	!	!	!	!	!	!	!	!	!
8F\	.	.	8A-/	.	24a-/LL	.	.	.	.	.	.	.	.	.	.	.
.	.	.	.	.	24g/	.	.	.	.	.	.	.	.	.	.	.
.	.	.	.	.	24f/JJ	.	.	.	.	.	.	.	.	.	.	.
!	!	!	!	!	!LO:TX:t=P:problem:klamra łukowa i  nr dopisane inną ręką	!	!	!	!	!	!	!	!	!	!	!
8F#X\J	.	.	8An/J	.	24e-/LL	.	.	.	.	.	.	.	.	.	.	.
.	.	.	.	.	24d/	.	.	.	.	.	.	.	.	.	.	.
.	.	.	.	.	24c/JJ	.	.	.	.	.	.	.	.	.	.	.
=26	=26	=26	=26	=26	=26	=26	=26	=26	=26	=26	=26	=26	=26	=26	=26	=26
!LO:TX:t=P:problem:mixed beam	!	!	!LO:SIC:s:v=Bn/	!	!	!	!	!	!	!	!	!	!	!	!	!
8GG/L	.	.	4B-/	.	4Bn/	.	2ryy	.	.	.	2ryy	.	2ryy	.	2ryy	2ryy
8G\J	.	.	.	.	.	.	.	.	.	.	.	.	.	.	.	.
4GG/	.	.	4r	.	16r	.	.	.	.	.	.	.	.	.	.	.
.	.	.	.	.	16G/LL	.	.	.	.	.	.	.	.	.	.	.
.	.	.	.	.	16A-/	.	.	.	.	.	.	.	.	.	.	.
.	.	.	.	.	16G/JJ	.	.	.	.	.	.	.	.	.	.	.
!	!	!	!	!	!LO:LB:g=original	!	!	!	!	!	!	!	!	!	!	!
=27	=27	=27	=27	=27	=27	=27	=27	=27	=27	=27	=27	=27	=27	=27	=27	=27
!	!	!	!	!	!	!	!	!	!LO:N:vis=00	!	!	!	!	!	!	!
8BBn/L	.	.	8e-/L	.	16G/LL	.	2ryy	.	0r	.	2ryy	.	2ryy	.	2ryy	2ryy
.	.	.	.	.	16f/J	.	.	.	.	.	.	.	.	.	.	.
8C/	.	.	8G/	.	8e-/J	.	.	.	.	.	.	.	.	.	.	.
8C/	.	.	8e-/	.	16r	.	.	.	.	.	.	.	.	.	.	.
.	.	.	.	.	16gg\	.	.	.	.	.	.	.	.	.	.	.
*	*	*	*	*	*tuplet	*	*	*	*	*	*	*	*	*	*	*
!	!	!	!	!	!LO:TUP:a:problem:klamra łukowa	!	!	!	!	!	!	!	!	!	!	!
8C/J	.	.	8e-/J	.	24gg\LL	.	.	.	.	.	.	.	.	.	.	.
.	.	.	.	.	24ff#X\	.	.	.	.	.	.	.	.	.	.	.
.	.	.	.	.	24gg\JJ	.	.	.	.	.	.	.	.	.	.	.
!	!	!	!LO:LB:g=original	!	!	!	!	!	!	!	!	!	!	!	!	!
=28	=28	=28	=28	=28	=28	=28	=28	=28	=28	=28	=28	=28	=28	=28	=28	=28
8BBn/L	.	.	8G/L	.	16dd\LL	.	2ryy	.	.	.	2ryy	.	2ryy	.	2ryy	2ryy
.	.	.	.	.	16ffn\J	.	.	.	.	.	.	.	.	.	.	.
8C/	.	.	8G/J	.	8ee-X\J	.	.	.	.	.	.	.	.	.	.	.
8C/	.	.	8e-/L	.	16r	.	.	.	.	.	.	.	.	.	.	.
!	!	!	!	!	!	!LO:DY:b:rj	!	!	!	!	!	!	!	!	!	!
.	.	.	.	.	16G/LL	p	.	.	.	.	.	.	.	.	.	.
8C/J	.	.	8e-/J	.	16A-/	.	.	.	.	.	.	.	.	.	.	.
.	.	.	.	.	16G/JJ	.	.	.	.	.	.	.	.	.	.	.
!LO:LB:g=original	!	!	!	!	!	!	!	!	!	!	!	!	!	!	!	!
=29	=29	=29	=29	=29	=29	=29	=29	=29	=29	=29	=29	=29	=29	=29	=29	=29
8BBn/L	.	.	8e-/L	.	16G/LL	.	2ryy	.	.	.	2ryy	.	2ryy	.	2ryy	2ryy
.	.	.	.	.	16f/J	.	.	.	.	.	.	.	.	.	.	.
8C/	.	.	8G/	.	8e-/J	.	.	.	.	.	.	.	.	.	.	.
8C/	.	.	8e-/	.	16r	.	.	.	.	.	.	.	.	.	.	.
.	.	.	.	.	16gg\	.	.	.	.	.	.	.	.	.	.	.
8C/J	.	.	8e-/J	.	24gg\LL	.	.	.	.	.	.	.	.	.	.	.
.	.	.	.	.	24ff#X\	.	.	.	.	.	.	.	.	.	.	.
.	.	.	.	.	24gg\JJ	.	.	.	.	.	.	.	.	.	.	.
=30	=30	=30	=30	=30	=30	=30	=30	=30	=30	=30	=30	=30	=30	=30	=30	=30
!LO:TX:t=P:problem:mixed beam	!	!	!LO:TX:t=P:problem:mixed beam	!	!	!	!	!	!	!	!	!	!	!	!	!
8BBn/L	.	.	16.G/LL	.	16.dd\LL	.	2ryy	.	.	.	2ryy	.	2ryy	.	2ryy	2ryy
!	!	!	!	!	!LO:SIC:v:s=32ff\JJk	!	!	!	!	!	!	!	!	!	!	!
.	.	.	32ff\JJk	.	32gg\JJk	.	.	.	.	.	.	.	.	.	.	.
!	!	!	!	!	!LO:SIC:v:s=32ee-\LLL	!	!	!	!	!	!	!	!	!	!	!
8C/	.	.	32ee-\LLL	.	32ff\LLL	.	.	.	.	.	.	.	.	.	.	.
.	.	.	32bn\	.	32bn\	.	.	.	.	.	.	.	.	.	.	.
.	.	.	32cc\	.	32cc\	.	.	.	.	.	.	.	.	.	.	.
!	!	!	!LO:SIC:v:s=32f\JJJ	!	!	!	!	!	!	!	!	!	!	!	!	!
.	.	.	32e-\JJJ	.	32f\JJJ	.	.	.	.	.	.	.	.	.	.	.
8G\	.	.	8e-/L	.	8e-/L	.	.	.	.	.	.	.	.	.	.	.
8GG/J	.	.	8d/J	.	8d/J	.	.	.	.	.	.	.	.	.	.	.
=31	=31	=31	=31	=31	=31	=31	=31	=31	=31	=31	=31	=31	=31	=31	=31	=31
8C/L	.	.	4c/	.	4c/	f	2ryy	.	2r	.	2ryy	.	2ryy	.	2ryy	2ryy
8GG/J	.	.	.	.	.	.	.	.	.	.	.	.	.	.	.	.
4CC/	.	.	4r	.	4r	.	.	.	.	.	.	.	.	.	.	.
!	!	!	!	!	!LO:LB:g=original	!	!	!	!	!	!	!	!	!	!	!
=32	=32	=32	=32	=32	=32	=32	=32	=32	=32	=32	=32	=32	=32	=32	=32	=32
!	!	!	!LO:TX:t=1	!	!LO:TX:a:t=1	!	!	!	!	!	!	!	!	!	!	!
8C/L	.	.	2r	.	2r	.	2ryy	.	8c\	Te	2ryy	.	2ryy	.	2ryy	2ryy
8C/	.	.	.	.	.	.	.	.	16r	.	.	.	.	.	.	.
.	.	.	.	.	.	.	.	.	32g\LLL	te	.	.	.	.	.	.
.	.	.	.	.	.	.	.	.	32a-\JJJ	.	.	.	.	.	.	.
8BBn/	.	.	.	.	.	.	.	.	16g\LL	de-	.	.	.	.	.	.
.	.	.	.	.	.	.	.	.	16f\JJ	.	.	.	.	.	.	.
8BB/J	.	.	.	.	.	.	.	.	16e-\LL	-cet	.	.	.	.	.	.
.	.	.	.	.	.	.	.	.	16d\JJ	.	.	.	.	.	.	.
=33	=33	=33	=33	=33	=33	=33	=33	=33	=33	=33	=33	=33	=33	=33	=33	=33
!	!	!	!	!	!	!	!	!	!LO:TUP:a:problem:klamra łukowa	!	!	!	!	!	!	!
4C/	.	.	8r	.	8r	.	2ryy	.	24c\LL	hi-	2ryy	.	2ryy	.	2ryy	2ryy
.	.	.	.	.	.	.	.	.	24Bn\	.	.	.	.	.	.	.
.	.	.	.	.	.	.	.	.	24c\JJ	.	.	.	.	.	.	.
.	.	.	16c/LL	.	16e-/LL	.	.	.	8G\	-mnuſ	.	.	.	.	.	.
.	.	.	16d/JJ	.	16g/JJ	.	.	.	.	.	.	.	.	.	.	.
8r	.	.	8e-/L	.	8g/L	.	.	.	8r	.	.	.	.	.	.	.
8C/	.	.	8e-/J	.	16g/L	.	.	.	16G/LL	te	.	.	.	.	.	.
.	.	.	.	.	16a-/JJ	.	.	.	16A-/JJ	.	.	.	.	.	.	.
=34	=34	=34	=34	=34	=34	=34	=34	=34	=34	=34	=34	=34	=34	=34	=34	=34
8BBn/L	.	.	8d/L	.	16a-/LL	.	2ryy	.	16A-/LL	De-	2ryy	.	2ryy	.	2ryy	2ryy
.	.	.	.	.	16g/	.	.	.	16G/JJ	.	.	.	.	.	.	.
8BB/	.	.	8d/	.	16g/	.	.	.	16G/LL	-cet	.	.	.	.	.	.
.	.	.	.	.	16a-/JJ	.	.	.	16A-/JJ	.	.	.	.	.	.	.
8BB/	.	.	8d/	.	16a-/LL	.	.	.	16A-/LL	hi-	.	.	.	.	.	.
.	.	.	.	.	16g/	.	.	.	16G/JJ	.	.	.	.	.	.	.
8BB/J	.	.	8d/J	.	16g/	.	.	.	16G/	-mnuſ	.	.	.	.	.	.
.	.	.	.	.	16f/JJ	.	.	.	16f\	in	.	.	.	.	.	.
!	!	!	!LO:LB:g=original	!	!	!	!	!	!LO:LB:g=original	!	!	!	!	!	!	!
=35	=35	=35	=35	=35	=35	=35	=35	=35	=35	=35	=35	=35	=35	=35	=35	=35
*	*	*	*	*	*Xtuplet	*	*	*	*Xtuplet	*	*	*	*	*	*	*
!	!	!	!	!	!LO:TX:t=P:problem:klamra łukowa i  nr dopisane inną ręką	!	!	!	!	!	!	!	!	!	!	!
4C/	.	.	8c/L	.	24e-/LL	.	2ryy	.	24e-\LL	ſi-	2ryy	.	2ryy	.	2ryy	2ryy
.	.	.	.	.	24d/	.	.	.	24d\	.	.	.	.	.	.	.
.	.	.	.	.	24c/JJ	.	.	.	24c\JJ	.	.	.	.	.	.	.
.	.	.	16c/L	.	16e-/LL	.	.	.	8c\	-on	.	.	.	.	.	.
.	.	.	16d/JJ	.	16f/JJ	.	.	.	.	.	.	.	.	.	.	.
8r	.	.	8e-/L	.	8g/L	.	.	.	8r	.	.	.	.	.	.	.
8C/	.	.	8e-/J	.	16g/L	.	.	.	16G/LL	Te	.	.	.	.	.	.
.	.	.	.	.	16a-/JJ	.	.	.	16A-/JJ	.	.	.	.	.	.	.
=36	=36	=36	=36	=36	=36	=36	=36	=36	=36	=36	=36	=36	=36	=36	=36	=36
8BBn/L	.	.	8d/L	.	16a-/LL	.	2ryy	.	16A-/LL	de-	2ryy	.	2ryy	.	2ryy	2ryy
.	.	.	.	.	16g/	.	.	.	16G/JJ	.	.	.	.	.	.	.
8BB/	.	.	8d/	.	16g/	.	.	.	16G/LL	-cet	.	.	.	.	.	.
.	.	.	.	.	16a-/JJ	.	.	.	16A-/JJ	.	.	.	.	.	.	.
!	!	!	!	!	!LO:TX:t=P:problem:mixed beam	!	!	!	!	!	!	!	!	!	!	!
8BB/	.	.	8d/	.	16a-/LL	.	.	.	16A-/LL	hi-	.	.	.	.	.	.
.	.	.	.	.	16g/	.	.	.	16G/JJ	.	.	.	.	.	.	.
8BB/J	.	.	8d/J	.	16g/	.	.	.	16G/	-mnus	.	.	.	.	.	.
.	.	.	.	.	16ff\JJ	.	.	.	16f\	in	.	.	.	.	.	.
!LO:LB:g=original	!	!	!	!	!	!	!	!	!	!	!	!	!	!	!	!
=37	=37	=37	=37	=37	=37	=37	=37	=37	=37	=37	=37	=37	=37	=37	=37	=37
*	*	*	*	*	*tuplet	*	*	*	*	*	*	*	*	*	*	*
!	!	!	!	!	!	!	!	!	!LO:TUP:a:problem:klamra łukowa, kropka zamiast numeru	!	!	!	!	!	!	!
4C;/	.	.	4e-/	.	24ee-\LL	.	2ryy	.	24e-\LL	si-	2ryy	.	2ryy	.	2ryy	2ryy
.	.	.	.	.	24dd\	.	.	.	24d\	.	.	.	.	.	.	.
.	.	.	.	.	24cc\J	.	.	.	24c\JJ	.	.	.	.	.	.	.
.	.	.	.	.	8cc\J	.	.	.	8c\	-on	.	.	.	.	.	.
4r	.	.	4r	.	4r	.	.	.	8r	.	.	.	.	.	.	.
.	.	.	.	.	.	.	.	.	16r;	.	.	.	.	.	.	.
.	.	.	.	.	.	.	.	.	16d\	Et	.	.	.	.	.	.
!	!	!	!	!	!LO:LB:g=original	!	!	!	!	!	!	!	!	!	!	!
=38	=38	=38	=38	=38	=38	=38	=38	=38	=38	=38	=38	=38	=38	=38	=38	=38
8r	.	.	8r	.	8r	.	2ryy	.	8e-\	ti-	2ryy	.	2ryy	.	2ryy	2ryy
8E-\	.	.	16r	.	16r	.	.	.	16B-\	-bi	.	.	.	.	.	.
.	.	.	16gg\	.	16bb-\	.	.	.	16B-\	re-	.	.	.	.	.	.
!LO:TX:t=P:problem:mixed beam	!	!	!	!	!	!	!	!	!	!	!	!	!	!	!	!
8B-\L	.	.	8gg\L	.	8bb-\L	.	.	.	8B-\	-de-	.	.	.	.	.	.
8BB-/J	.	.	8ff\J	.	8aa-\J	.	.	.	8A-\	-tur	.	.	.	.	.	.
!	!	!	!	!	!	!	!	!	!LO:LB:g=original	!	!	!	!	!	!	!
=39	=39	=39	=39	=39	=39	=39	=39	=39	=39	=39	=39	=39	=39	=39	=39	=39
*	*	*	*	*	*Xtuplet	*	*	*	*	*	*	*	*	*	*	*
!	!	!	!LO:TUP:a:problem:klamra łukowa	!	!	!	!	!	!	!	!	!	!	!	!	!
!	!	!	!LO:N:vis=24.	!	!	!	!	!	!	!	!	!	!	!	!	!
8BB-/L	.	.	24ff\LL	.	24aa-\LL	.	2ryy	.	24A-/LL	vo-	2ryy	.	2ryy	.	2ryy	2ryy
.	.	.	24ee-\	.	24gg\	.	.	.	24G/	.	.	.	.	.	.	.
.	.	.	24ff\J	.	24aa-\J	.	.	.	24A-/JJ	.	.	.	.	.	.	.
8E-/J	.	.	8ee-\J	.	8gg\J	.	.	.	8G/	-tum	.	.	.	.	.	.
4r	.	.	4r	.	4r	.	.	.	4r	.	.	.	.	.	.	.
=40	=40	=40	=40	=40	=40	=40	=40	=40	=40	=40	=40	=40	=40	=40	=40	=40
!	!	!	!	!	!LO:TX:a:t=1	!	!	!	!	!	!	!	!	!	!	!
8A-\L	.	.	2r	.	2r	.	2ryy	.	16F/LL	vo-	2ryy	.	2ryy	.	2ryy	2ryy
.	.	.	.	.	.	.	.	.	16En/JJ	.	.	.	.	.	.	.
8A-\	.	.	.	.	.	.	.	.	16F/LL	-tum	.	.	.	.	.	.
.	.	.	.	.	.	.	.	.	16G/JJ	.	.	.	.	.	.	.
8A-\	.	.	.	.	.	.	.	.	16A-X/LL	in	.	.	.	.	.	.
.	.	.	.	.	.	.	.	.	16G/JJ	.	.	.	.	.	.	.
8A-\J	.	.	.	.	.	.	.	.	16A-/LL	Je-	.	.	.	.	.	.
.	.	.	.	.	.	.	.	.	16B-/JJ	.	.	.	.	.	.	.
=41	=41	=41	=41	=41	=41	=41	=41	=41	=41	=41	=41	=41	=41	=41	=41	=41
8A-\L	.	.	16r	.	16r	.	2ryy	.	4c\	-ru-	2ryy	.	2ryy	.	2ryy	2ryy
.	.	.	16c/LL	.	16e-/LL	.	.	.	.	.	.	.	.	.	.	.
8A-\	.	.	16c/	.	16e-/	.	.	.	.	.	.	.	.	.	.	.
.	.	.	16c/JJ	.	16e-/JJ	.	.	.	.	.	.	.	.	.	.	.
8An\	.	.	16r	.	16r	.	.	.	4E-X/	-sa-	.	.	.	.	.	.
.	.	.	16c/LL	.	16e-/LL	.	.	.	.	.	.	.	.	.	.	.
8A\J	.	.	16c/	.	16e-/	.	.	.	.	.	.	.	.	.	.	.
.	.	.	16c/JJ	.	16e-/JJ	.	.	.	.	.	.	.	.	.	.	.
!	!	!	!LO:LB:g=original	!	!	!	!	!	!	!	!	!	!	!	!	!
=42	=42	=42	=42	=42	=42	=42	=42	=42	=42	=42	=42	=42	=42	=42	=42	=42
!LO:TX:t=P:problem:mixed beam	!	!	!LO:SIC:v:s=4B-/	!	!LO:SIC:v:s=4d/	!	!	!	!	!	!	!	!	!	!	!
8B-\L	.	.	4c/	.	4e-/	.	2ryy	.	4D/	-lem	2ryy	.	2ryy	.	2ryy	2ryy
8BB-/	.	.	.	.	.	.	.	.	.	.	.	.	.	.	.	.
8BB-/	.	.	16r	.	16r	.	.	.	8ryy	.	.	.	.	.	.	.
.	.	.	16ff\LL	.	16aa-\LL	.	.	.	.	.	.	.	.	.	.	.
8BB-/J	.	.	16ff\	.	16aa-\	.	.	.	16r	.	.	.	.	.	.	.
.	.	.	16ff\JJ	.	16aa-\JJ	.	.	.	16c\	et	.	.	.	.	.	.
=43	=43	=43	=43	=43	=43	=43	=43	=43	=43	=43	=43	=43	=43	=43	=43	=43
*	*	*	*	*	*tuplet	*	*	*	*	*	*	*	*	*	*	*
!	!	!	!	!	!	!	!	!	!LO:TUP:a:problem:klamra łukowa, kropka zamiast numeru	!	!	!	!	!	!	!
8E-\L	.	.	24ee-\LL	.	24gg\LL	.	2ryy	.	24G\LL	ti-	2ryy	.	2ryy	.	2ryy	2ryy
.	.	.	24aa-\	.	24ccc\	.	.	.	24c\	.	.	.	.	.	.	.
.	.	.	24gg\J	.	24bb-\J	.	.	.	24B-\JJ	.	.	.	.	.	.	.
8E-\	.	.	8gg\J	.	8bb-\J	.	.	.	8B-\	-bi	.	.	.	.	.	.
8D\	.	.	16r	.	16r	.	.	.	16r	.	.	.	.	.	.	.
.	.	.	16ff\LL	.	16aa-\LL	.	.	.	16A-\	re-	.	.	.	.	.	.
8D\J	.	.	16ff\	.	16aa-\	.	.	.	16A-\	-de-	.	.	.	.	.	.
.	.	.	16ff\JJ	.	16aa-\JJ	.	.	.	16A-\	-tur	.	.	.	.	.	.
!	!	!	!	!	!LO:PB:g=original	!	!	!	!	!	!	!	!	!	!	!
=44	=44	=44	=44	=44	=44	=44	=44	=44	=44	=44	=44	=44	=44	=44	=44	=44
!	!	!	!	!	!	!	!	!	!LO:TX:t=P:problem:t. 44 zapisany repetycją	!	!	!	!	!	!	!
!	!	!	!	!	!	!	!	!	!LO:TUP:a:problem:klamra łukowa, kropka zamiast numeru	!	!	!	!	!	!	!
8E-\L	.	.	24ee-\LL	.	24gg\LL	.	2ryy	.	24G\LLyy	ti-	2ryy	.	2ryy	.	2ryy	2ryy
.	.	.	24aa-\	.	24ccc\	.	.	.	24c\yy	.	.	.	.	.	.	.
.	.	.	24gg\J	.	24bb-\J	.	.	.	24B-\JJyy	.	.	.	.	.	.	.
8E-\	.	.	8gg\J	.	8bb-\J	.	.	.	8B-\yy	-bi	.	.	.	.	.	.
8D\	.	.	16r	.	16r	.	.	.	16ryy	.	.	.	.	.	.	.
.	.	.	16ff\LL	.	16aa-\LL	.	.	.	16A-\yy	re-	.	.	.	.	.	.
8D\J	.	.	16ff\	.	16aa-\	.	.	.	16A-\yy	-de-	.	.	.	.	.	.
.	.	.	16ff\JJ	.	16aa-\JJ	.	.	.	16A-\yy	-tur	.	.	.	.	.	.
!LO:LB:g=original	!	!	!	!	!	!	!	!	!LO:LB:g=original	!	!	!	!	!	!	!
=45	=45	=45	=45	=45	=45	=45	=45	=45	=45	=45	=45	=45	=45	=45	=45	=45
!LO:TX:t=P:problem:mixed beam	!	!	!LO:TX:t=P:problem:mixed beam	!	!	!	!	!	!	!	!	!	!	!	!	!
8E-\L	.	.	16ee-\LL	.	16gg\LL	.	2ryy	.	16G\	vo-	2ryy	.	2ryy	.	2ryy	2ryy
.	.	.	16g/JJ	.	16ee-\JJ	.	.	.	16e-\	-tum	.	.	.	.	.	.
*	*	*	*tuplet	*	*Xtuplet	*	*	*	*	*	*	*	*	*	*	*
!	!	!	!LO:TUP:b:problem:klamra łukowa	!	!LO:TX:t=P:problem:klamra łukowa i  nr dopisana inną ręką	!	!	!	!LO:TUP:a:problem:klamra łukowa, kropka zamiast numeru	!	!	!	!	!	!	!
8G\	.	.	24a-/LL	.	24cc\LL	.	.	.	24c\LL	.	.	.	.	.	.	.
.	.	.	24g/	.	24b-\	.	.	.	24B-\JJ	.	.	.	.	.	.	.
.	.	.	24f/JJ	.	24a-\JJ	.	.	.	24A-\	Je-	.	.	.	.	.	.
8B-\	.	.	8e-/L	.	8g/L	.	.	.	8G/	ru-	.	.	.	.	.	.
8BB-/J	.	.	8d/J	.	8f/J	.	.	.	8F/	-sa-	.	.	.	.	.	.
=46	=46	=46	=46	=46	=46	=46	=46	=46	=46	=46	=46	=46	=46	=46	=46	=46
8E-/L	.	.	4e-/	.	4e-/	.	2ryy	.	4E-/	-lem	2ryy	.	2ryy	.	2ryy	2ryy
8BB-/	.	.	.	.	.	.	.	.	.	.	.	.	.	.	.	.
8E-/	.	.	16r	.	16r	.	.	.	4r	.	.	.	.	.	.	.
.	.	.	16a-/LL	.	16ff\LL	.	.	.	.	.	.	.	.	.	.	.
8D/J	.	.	16a-/	.	16ff\	.	.	.	.	.	.	.	.	.	.	.
.	.	.	16a-/JJ	.	16ff\JJ	.	.	.	.	.	.	.	.	.	.	.
!	!	!	!LO:LB:g=original	!	!	!	!	!	!	!	!	!	!	!	!	!
=47	=47	=47	=47	=47	=47	=47	=47	=47	=47	=47	=47	=47	=47	=47	=47	=47
*	*	*	*Xtuplet	*	*tuplet	*	*	*	*	*	*	*	*	*	*	*
!	!	!	!	!	!	!	!	!	!LO:TX:t=P:problem:t. 47-50 zapisane repetycją	!	!	!	!	!	!	!
!	!	!	!	!	!LO:TUP:a:problem:klamra łukowa	!	!	!	!LO:TUP:a:problem:klamra łukowa, kropka zamiast numeru	!	!	!	!	!	!	!
8E-\L	.	.	24g\LL	.	24ee-\LL	.	2ryy	.	24G\LLyy	ti-	2ryy	.	2ryy	.	2ryy	2ryy
.	.	.	24cc\	.	24aa-\	.	.	.	24c\yy	.	.	.	.	.	.	.
.	.	.	24b-\J	.	24gg\J	.	.	.	24B-\JJyy	.	.	.	.	.	.	.
8E-\	.	.	8b-\J	.	8gg\J	.	.	.	8B-\yy	-bi	.	.	.	.	.	.
8D\	.	.	16r	.	16r	.	.	.	16ryy	.	.	.	.	.	.	.
.	.	.	16a-/LL	.	16ff\LL	.	.	.	16A-\yy	re-	.	.	.	.	.	.
8D\J	.	.	16a-/	.	16ff\	.	.	.	16A-\yy	-de-	.	.	.	.	.	.
.	.	.	16a-/JJ	.	16ff\JJ	.	.	.	16A-\yy	-tur	.	.	.	.	.	.
!	!	!	!	!	!LO:LB:g=original	!	!	!	!	!	!	!	!	!	!	!
=48	=48	=48	=48	=48	=48	=48	=48	=48	=48	=48	=48	=48	=48	=48	=48	=48
!	!	!	!	!	!	!	!	!	!LO:TX:t=P:problem:t. 48 zapisany jako repetycja	!	!	!	!	!	!	!
!	!	!	!	!	!LO:TUP:a:problem:klamra łukowa	!	!	!	!LO:TUP:a:problem:klamra łukowa, kropka zamiast numeru	!	!	!	!	!	!	!
8E-\L	.	.	24g\LL	.	24ee-\LL	.	2ryy	.	24G\LLyy	ti-	2ryy	.	2ryy	.	2ryy	2ryy
.	.	.	24cc\	.	24aa-\	.	.	.	24c\	.	.	.	.	.	.	.
.	.	.	24b-\J	.	24gg\J	.	.	.	24B-\JJ	.	.	.	.	.	.	.
8E-\	.	.	8b-\J	.	8gg\J	.	.	.	8B-\yy	-bi	.	.	.	.	.	.
8D\	.	.	16r	.	16r	.	.	.	16ryy	.	.	.	.	.	.	.
.	.	.	16a-/LL	.	16ff\LL	.	.	.	16A-\yy	re-	.	.	.	.	.	.
8D\J	.	.	16a-/	.	16ff\	.	.	.	16A-\yy	-de-	.	.	.	.	.	.
.	.	.	16a-/JJ	.	16ff\JJ	.	.	.	16A-\yy	-tur	.	.	.	.	.	.
=49	=49	=49	=49	=49	=49	=49	=49	=49	=49	=49	=49	=49	=49	=49	=49	=49
!LO:TX:t=P:problem:mixed beam	!	!	!	!	!	!	!	!	!	!	!	!	!	!	!	!
8E-\L	.	.	8g/	.	8ee-\	.	2ryy	.	16G\yy	vo-	2ryy	.	2ryy	.	2ryy	2ryy
.	.	.	.	.	.	.	.	.	16e-\yy	-tum	.	.	.	.	.	.
!	!	!	!	!	!	!	!	!	!LO:TUP:a:problem:klamra łukowa, kropka zamiast numeru	!	!	!	!	!	!	!
8G\	.	.	8r	.	8r	.	.	.	24c\LLyy	.	.	.	.	.	.	.
.	.	.	.	.	.	.	.	.	24B-\JJyy	.	.	.	.	.	.	.
.	.	.	.	.	.	.	.	.	24A-\yy	Je-	.	.	.	.	.	.
8B-\	.	.	4r	.	4r	.	.	.	8G/yy	ru-	.	.	.	.	.	.
8BB-/J	.	.	.	.	.	.	.	.	8F/yy	-sa-	.	.	.	.	.	.
=50	=50	=50	=50	=50	=50	=50	=50	=50	=50	=50	=50	=50	=50	=50	=50	=50
!	!	!	!	!	!LO:TX:a:t=P:problem:Ottoni:dopisane inną ręką	!	!	!	!	!	!	!	!	!	!	!
8E-\L	.	.	8g/L	.	8ee-\L	.	2ryy	.	4E-/yy	-lem	2ryy	.	2ryy	.	2ryy	2ryy
8E-\	.	.	8g/	.	16.b-\L	.	.	.	.	.	.	.	.	.	.	.
.	.	.	.	.	32cc\JJk	.	.	.	.	.	.	.	.	.	.	.
8D\	.	.	8f/	.	16.b-/LL	.	.	.	4ryy	.	.	.	.	.	.	.
.	.	.	.	.	32a-/K	.	.	.	.	.	.	.	.	.	.	.
8D\J	.	.	8f/J	.	16.g/	.	.	.	.	.	.	.	.	.	.	.
.	.	.	.	.	32f/JJk	.	.	.	.	.	.	.	.	.	.	.
=51	=51	=51	=51	=51	=51	=51	=51	=51	=51	=51	=51	=51	=51	=51	=51	=51
*	*	*	*	*	*Xtuplet	*	*	*	*	*	*	*	*	*	*	*
!	!	!	!	!	!	!	!	!	!LO:N:vis=00	!	!	!	!	!	!	!
8C/L	.	.	8e-/L	.	24e-/LL	.	2ryy	.	0r	.	2ryy	.	2ryy	.	2ryy	2ryy
.	.	.	.	.	24d/	.	.	.	.	.	.	.	.	.	.	.
.	.	.	.	.	24e-/J	.	.	.	.	.	.	.	.	.	.	.
8GG/	.	.	8e-/	.	8B-/J	.	.	.	.	.	.	.	.	.	.	.
8GG/	.	.	8B-/	.	8r	.	.	.	.	.	.	.	.	.	.	.
8GG/J	.	.	8B-/J	.	16e-/LL	.	.	.	.	.	.	.	.	.	.	.
.	.	.	.	.	16g/JJ	.	.	.	.	.	.	.	.	.	.	.
=52	=52	=52	=52	=52	=52	=52	=52	=52	=52	=52	=52	=52	=52	=52	=52	=52
8AA-/L	.	.	8c/L	.	16f/LL	.	2ryy	.	.	.	2ryy	.	2ryy	.	2ryy	2ryy
.	.	.	.	.	16en/	.	.	.	.	.	.	.	.	.	.	.
8AA-/	.	.	8c/	.	16f/	.	.	.	.	.	.	.	.	.	.	.
.	.	.	.	.	16cc/JJ	.	.	.	.	.	.	.	.	.	.	.
*	*	*	*	*	*tuplet	*	*	*	*	*	*	*	*	*	*	*
!	!	!	!	!	!LO:TUP:b:problem:klamra łukowa	!	!	!	!	!	!	!	!	!	!	!
8AA-/	.	.	8c/	.	24cc/LL	.	.	.	.	.	.	.	.	.	.	.
.	.	.	.	.	24b-/	.	.	.	.	.	.	.	.	.	.	.
.	.	.	.	.	24a-/JJ	.	.	.	.	.	.	.	.	.	.	.
!	!	!	!	!	!LO:TUP:b:problem:klamra łukowa	!	!	!	!	!	!	!	!	!	!	!
8AAn/J	.	.	8c/J	.	24g/LL	.	.	.	.	.	.	.	.	.	.	.
.	.	.	.	.	24f/	.	.	.	.	.	.	.	.	.	.	.
!	!	!	!	!	!LO:SIC:s:v=24e-/JJ	!	!	!	!	!	!	!	!	!	!	!
.	.	.	.	.	24e/JJ	.	.	.	.	.	.	.	.	.	.	.
!	!	!	!LO:PB:g=original	!	!LO:LB:g=original	!	!	!	!	!	!	!	!	!	!	!
=53	=53	=53	=53	=53	=53	=53	=53	=53	=53	=53	=53	=53	=53	=53	=53	=53
8BB-/L	.	.	4d/	.	4d/	.	2ryy	.	.	.	2ryy	.	2ryy	.	2ryy	2ryy
8BB-/	.	.	.	.	.	.	.	.	.	.	.	.	.	.	.	.
8BB-/J	.	.	4r	.	16r	.	.	.	.	.	.	.	.	.	.	.
.	.	.	.	.	16B-/LL	.	.	.	.	.	.	.	.	.	.	.
8r	.	.	.	.	16c/	.	.	.	.	.	.	.	.	.	.	.
.	.	.	.	.	16B-/JJ	.	.	.	.	.	.	.	.	.	.	.
!LO:LB:g=original	!	!	!	!	!	!	!	!	!	!	!	!	!	!	!	!
=54	=54	=54	=54	=54	=54	=54	=54	=54	=54	=54	=54	=54	=54	=54	=54	=54
8D\L	.	.	8e-/L	.	16B-/LL	.	2ryy	.	.	.	2ryy	.	2ryy	.	2ryy	2ryy
.	.	.	.	.	16a-X/J	.	.	.	.	.	.	.	.	.	.	.
8E-\	.	.	8G/	.	8g/J	.	.	.	.	.	.	.	.	.	.	.
8E-\	.	.	8e-/	.	16r	.	.	.	.	.	.	.	.	.	.	.
.	.	.	.	.	16bb-\	.	.	.	.	.	.	.	.	.	.	.
!	!	!	!	!	!LO:TUP:a:problem:klamra łukowa	!	!	!	!	!	!	!	!	!	!	!
8E-\J	.	.	8e-/J	.	24bb-\LL	.	.	.	.	.	.	.	.	.	.	.
.	.	.	.	.	24aa-\	.	.	.	.	.	.	.	.	.	.	.
.	.	.	.	.	24bb-\JJ	.	.	.	.	.	.	.	.	.	.	.
=55	=55	=55	=55	=55	=55	=55	=55	=55	=55	=55	=55	=55	=55	=55	=55	=55
!	!	!	!	!	!	!	!	!	!LO:N:vis=0	!	!	!	!	!	!	!
8D\L	.	.	8B-/L	.	16ff\LL	.	2ryy	.	1r	.	2ryy	.	2ryy	.	2ryy	2ryy
.	.	.	.	.	16aa-X\J	.	.	.	.	.	.	.	.	.	.	.
8E-\	.	.	8B-/	.	8gg\J	.	.	.	.	.	.	.	.	.	.	.
8E-\	.	.	8g/	.	16r	.	.	.	.	.	.	.	.	.	.	.
.	.	.	.	.	16B-/LL	.	.	.	.	.	.	.	.	.	.	.
8E-\J	.	.	8g/J	.	16c/	.	.	.	.	.	.	.	.	.	.	.
.	.	.	.	.	16B-/JJ	.	.	.	.	.	.	.	.	.	.	.
=56	=56	=56	=56	=56	=56	=56	=56	=56	=56	=56	=56	=56	=56	=56	=56	=56
!	!	!	!LO:TX:t=P:problem:brak t. 56	!	!	!	!	!	!	!	!	!	!	!	!	!
8D\L	.	.	2ryy	.	16B-/LL	.	2ryy	.	.	.	2ryy	.	2ryy	.	2ryy	2ryy
.	.	.	.	.	16a-/J	.	.	.	.	.	.	.	.	.	.	.
8E-\	.	.	.	.	8g/J	.	.	.	.	.	.	.	.	.	.	.
8E-\	.	.	.	.	16r	.	.	.	.	.	.	.	.	.	.	.
.	.	.	.	.	16bb-\	.	.	.	.	.	.	.	.	.	.	.
*	*	*	*	*	*Xtuplet	*	*	*	*	*	*	*	*	*	*	*
8E-\J	.	.	.	.	24bb-\LL	.	.	.	.	.	.	.	.	.	.	.
.	.	.	.	.	24aan\	.	.	.	.	.	.	.	.	.	.	.
.	.	.	.	.	24bb-\JJ	.	.	.	.	.	.	.	.	.	.	.
=57	=57	=57	=57	=57	=57	=57	=57	=57	=57	=57	=57	=57	=57	=57	=57	=57
!LO:TX:t=P:problem:mixed beam	!	!	!	!	!	!	!	!	!	!	!	!	!	!	!	!
8D\L	.	.	16.B-/LL	.	16.ff\LL	.	2ryy	.	2r	.	2ryy	.	2ryy	.	2ryy	2ryy
.	.	.	32aa-\JJk	.	32aa-X\JJk	.	.	.	.	.	.	.	.	.	.	.
!	!	!	!	!	!LO:LB:g=original	!	!	!	!	!	!	!	!	!	!	!
8E-\	.	.	32gg\LLL	.	32gg\LLL	.	.	.	.	.	.	.	.	.	.	.
!	!	!	!LO:SIC:v:s=32dd\	!	!	!	!	!	!	!	!	!	!	!	!	!
.	.	.	32cc\	.	32dd\	.	.	.	.	.	.	.	.	.	.	.
.	.	.	32ee-\	.	32ee-\	.	.	.	.	.	.	.	.	.	.	.
.	.	.	32a-\JJJ	.	32a-\JJJ	.	.	.	.	.	.	.	.	.	.	.
8B-\	.	.	8g/L	.	8g/L	.	.	.	.	.	.	.	.	.	.	.
8BB-/J	.	.	8f/J	.	8f/J	.	.	.	.	.	.	.	.	.	.	.
=58	=58	=58	=58	=58	=58	=58	=58	=58	=58	=58	=58	=58	=58	=58	=58	=58
!LO:TX:t=P:problem:mixed beam	!	!	!	!	!	!	!	!	!	!	!	!	!	!	!	!
8E-\L	.	.	4e-/	.	4e-/	.	2ryy	.	4r	.	2ryy	.	2ryy	.	2ryy	2ryy
8BB-/J	.	.	.	.	.	.	.	.	.	.	.	.	.	.	.	.
4EE-/	.	.	4r	.	4r	.	.	.	8r	.	.	.	.	.	.	.
.	.	.	.	.	.	.	.	.	16r	.	.	.	.	.	.	.
.	.	.	.	.	.	.	.	.	16d\	Ex-	.	.	.	.	.	.
=59	=59	=59	=59	=59	=59	=59	=59	=59	=59	=59	=59	=59	=59	=59	=59	=59
8E-\L	.	.	2r	.	2r	.	2ryy	.	16e-\	-au-	2ryy	.	2ryy	.	2ryy	2ryy
.	.	.	.	.	.	.	.	.	16B-\	-di	.	.	.	.	.	.
8E-\	.	.	.	.	.	.	.	.	16c\	o-	.	.	.	.	.	.
.	.	.	.	.	.	.	.	.	16B-\	-ra-	.	.	.	.	.	.
8D\	.	.	.	.	.	.	.	.	8A-\	-ti-	.	.	.	.	.	.
8D\J	.	.	.	.	.	.	.	.	16G/	-o-	.	.	.	.	.	.
.	.	.	.	.	.	.	.	.	16F/	-nem	.	.	.	.	.	.
!	!	!	!	!	!	!	!	!	!LO:LB:g=original	!	!	!	!	!	!	!
=60	=60	=60	=60	=60	=60	=60	=60	=60	=60	=60	=60	=60	=60	=60	=60	=60
!	!	!	!	!	!	!	!	!	!LO:TUP:b:problem:klamra łukowa, kropka zamiast numeru	!	!	!	!	!	!	!
4E-\	.	.	8r	.	8r	.	2ryy	.	24E-/LL	me-	2ryy	.	2ryy	.	2ryy	2ryy
.	.	.	.	.	.	.	.	.	24D/	.	.	.	.	.	.	.
.	.	.	.	.	.	.	.	.	24E-/JJ	.	.	.	.	.	.	.
.	.	.	16e-/LL	.	16g/LL	.	.	.	8E-/	-am	.	.	.	.	.	.
.	.	.	16f/JJ	.	16a-/JJ	.	.	.	.	.	.	.	.	.	.	.
!	!	!	!LO:TX:t=P:problem:mixed beam	!	!	!	!	!	!	!	!	!	!	!	!	!
4r	.	.	8g/L	.	16b-\LL	.	.	.	8r	.	.	.	.	.	.	.
.	.	.	.	.	16ee-\J	.	.	.	.	.	.	.	.	.	.	.
.	.	.	8ee-\J	.	8gg\J	.	.	.	16e-\LL	ex-	.	.	.	.	.	.
.	.	.	.	.	.	.	.	.	16g\JJ	.	.	.	.	.	.	.
!	!	!	!LO:LB:g=original	!	!	!	!	!	!	!	!	!	!	!	!	!
=61	=61	=61	=61	=61	=61	=61	=61	=61	=61	=61	=61	=61	=61	=61	=61	=61
8BB-/L	.	.	16ee-\LL	.	16gg\LL	.	2ryy	.	16g\LL	-au-	2ryy	.	2ryy	.	2ryy	2ryy
.	.	.	16dd\	.	16ff\	.	.	.	16f\JJ	.	.	.	.	.	.	.
8BB-/	.	.	16dd\	.	16ff\	.	.	.	16g\	-di	.	.	.	.	.	.
.	.	.	16ee-\JJ	.	16gg\JJ	.	.	.	16g\	o-	.	.	.	.	.	.
8BB-/	.	.	16ee-\LL	.	16gg\LL	.	.	.	16f\	-ra-	.	.	.	.	.	.
.	.	.	16dd\J	.	16ff\	.	.	.	16f\	-ti-	.	.	.	.	.	.
8BB-/J	.	.	8dd\J	.	16ff\	.	.	.	16f\	-o-	.	.	.	.	.	.
.	.	.	.	.	16gg\JJ	.	.	.	16a-\	-nem	.	.	.	.	.	.
=62	=62	=62	=62	=62	=62	=62	=62	=62	=62	=62	=62	=62	=62	=62	=62	=62
!	!	!	!LO:TX:t=P:problem:mixed beam	!	!LO:TUP:a:problem:klamra łukowa	!	!	!	!	!	!	!	!	!	!	!
4E-\	.	.	8ee-\L	.	24gg\LL	.	2ryy	.	24g\LL	me-	2ryy	.	2ryy	.	2ryy	2ryy
.	.	.	.	.	24ff\	.	.	.	24f\	.	.	.	.	.	.	.
.	.	.	.	.	24ee-\JJ	.	.	.	24e-\JJ	.	.	.	.	.	.	.
.	.	.	16e-/L	.	16g/LL	.	.	.	8e-\	-am	.	.	.	.	.	.
.	.	.	16f/JJ	.	16a-/JJ	.	.	.	.	.	.	.	.	.	.	.
!	!	!	!LO:TX:t=P:problem:mixed beam	!	!	!	!	!	!	!	!	!	!	!	!	!
4r	.	.	8g/L	.	8b-\L	.	.	.	8r	.	.	.	.	.	.	.
.	.	.	8ee-\J	.	16ee-\L	.	.	.	16e-\LL	ex-	.	.	.	.	.	.
.	.	.	.	.	16gg\JJ	.	.	.	16g\JJ	.	.	.	.	.	.	.
!LO:PB:g=original	!	!	!	!	!	!	!	!	!	!	!	!	!	!	!	!
=63	=63	=63	=63	=63	=63	=63	=63	=63	=63	=63	=63	=63	=63	=63	=63	=63
8BB-/L	.	.	16ee-\LL	.	16gg\LL	.	2ryy	.	16g\LL	-au-	2ryy	.	2ryy	.	2ryy	2ryy
.	.	.	16dd\	.	16ff\	.	.	.	16f\JJ	.	.	.	.	.	.	.
8BB-/	.	.	16dd\	.	16ff\	.	.	.	16g\	-di	.	.	.	.	.	.
.	.	.	16ee-\JJ	.	16gg\JJ	.	.	.	16g\	o-	.	.	.	.	.	.
!	!	!	!	!	!LO:LB:g=original	!	!	!	!LO:LB:g=original	!	!	!	!	!	!	!
8BB-/	.	.	16ee-\LL	.	16gg\LL	.	.	.	16f\	-ra-	.	.	.	.	.	.
.	.	.	16dd\J	.	16ff\	.	.	.	16f\	-ti-	.	.	.	.	.	.
8BB-/J	.	.	8dd\J	.	16ff\	.	.	.	16a-\	-o-	.	.	.	.	.	.
.	.	.	.	.	16gg\JJ	.	.	.	16a-\	-nem	.	.	.	.	.	.
=64	=64	=64	=64	=64	=64	=64	=64	=64	=64	=64	=64	=64	=64	=64	=64	=64
*	*	*	*	*	*tuplet	*	*	*	*	*	*	*	*	*	*	*
!	!	!	!	!	!LO:TUP:a:problem:klamra łukowa	!	!	!	!	!	!	!	!	!	!	!
4E-\	.	.	4ee-\	.	24gg\LL	.	2ryy	.	24g\LL	me-	2ryy	.	2ryy	.	2ryy	2ryy
.	.	.	.	.	24ff\	.	.	.	24f\	.	.	.	.	.	.	.
.	.	.	.	.	24ee-\J	.	.	.	24e-\JJ	.	.	.	.	.	.	.
.	.	.	.	.	8ee-\J	.	.	.	8e-\	-am	.	.	.	.	.	.
4r	.	.	4r	.	4r	.	.	.	4r	.	.	.	.	.	.	.
=65	=65	=65	=65	=65	=65	=65	=65	=65	=65	=65	=65	=65	=65	=65	=65	=65
!	!	!	!	!	!LO:TX:a:t=1	!	!	!	!	!	!	!	!	!	!	!
8F\L	.	.	2r	.	2r	.	2ryy	.	16d\LL	ad	2ryy	.	2ryy	.	2ryy	2ryy
.	.	.	.	.	.	.	.	.	16c\JJ	.	.	.	.	.	.	.
8F\	.	.	.	.	.	.	.	.	16d\LL	te	.	.	.	.	.	.
.	.	.	.	.	.	.	.	.	16e-\JJ	.	.	.	.	.	.	.
8F\	.	.	.	.	.	.	.	.	16f\LL	om-	.	.	.	.	.	.
.	.	.	.	.	.	.	.	.	16e-\JJ	.	.	.	.	.	.	.
8F\J	.	.	.	.	.	.	.	.	16f\LL	-ni	.	.	.	.	.	.
.	.	.	.	.	.	.	.	.	16g\JJ	.	.	.	.	.	.	.
=66	=66	=66	=66	=66	=66	=66	=66	=66	=66	=66	=66	=66	=66	=66	=66	=66
8F\L	.	.	16r	.	16r	.	2ryy	.	4a-\	Ca-	2ryy	.	2ryy	.	2ryy	2ryy
.	.	.	16a-/LL	.	16dd\LL	.	.	.	.	.	.	.	.	.	.	.
8F\	.	.	16a-/	.	16dd\	.	.	.	.	.	.	.	.	.	.	.
.	.	.	16a-/JJ	.	16dd\JJ	.	.	.	.	.	.	.	.	.	.	.
8F\	.	.	16r	.	16r	.	.	.	4c\	-ro	.	.	.	.	.	.
.	.	.	16a-/LL	.	16cc\LL	.	.	.	.	.	.	.	.	.	.	.
8F#X\J	.	.	16a-/	.	16cc\	.	.	.	.	.	.	.	.	.	.	.
.	.	.	16a-/JJ	.	16cc\JJ	.	.	.	.	.	.	.	.	.	.	.
!	!	!	!LO:LB:g=original	!	!	!	!	!	!	!	!	!	!	!	!	!
=67	=67	=67	=67	=67	=67	=67	=67	=67	=67	=67	=67	=67	=67	=67	=67	=67
!LO:TX:t=P:problem:mixed beam	!	!	!	!	!	!	!	!	!LO:TUP:a:problem:klamra łukowa, kropka zamiast numeru	!	!	!	!	!	!	!
8G\L	.	.	4g/	.	4bn\	.	2ryy	.	24c\LL	ve-	2ryy	.	2ryy	.	2ryy	2ryy
.	.	.	.	.	.	.	.	.	24Bn\JJ	.	.	.	.	.	.	.
.	.	.	.	.	.	.	.	.	24c\	-ni-	.	.	.	.	.	.
!	!	!	!	!	!	!	!	!	!LO:N:vis=16	!	!	!	!	!	!	!
8GG/	.	.	.	.	.	.	.	.	8B\	-et	.	.	.	.	.	.
8GG/	.	.	16r	.	16r	.	.	.	8r	.	.	.	.	.	.	.
.	.	.	16dd\LL	.	16ff\LL	.	.	.	.	.	.	.	.	.	.	.
8GG/J	.	.	16dd\	.	16ff\	.	.	.	16f\	Om-	.	.	.	.	.	.
.	.	.	16dd\JJ	.	16ff\JJ	.	.	.	16f\	-nis	.	.	.	.	.	.
!	!	!	!	!	!	!	!	!	!LO:LB:g=original	!	!	!	!	!	!	!
=68	=68	=68	=68	=68	=68	=68	=68	=68	=68	=68	=68	=68	=68	=68	=68	=68
!LO:TX:t=P:problem:mixed beam	!	!	!LO:TUP:a:problem:klamra łukowa, kropka zamiast numeru	!	!LO:TUP:a:problem:klamra łukowa	!	!	!	!	!	!	!	!	!	!	!
8G\L	.	.	24cc\LL	.	24ee-\LL	.	2ryy	.	24d\LL	Ca-	2ryy	.	2ryy	.	2ryy	2ryy
.	.	.	24ff\	.	24aa-\	.	.	.	24a-\	.	.	.	.	.	.	.
.	.	.	24ee-\J	.	24gg\J	.	.	.	24g\JJ	.	.	.	.	.	.	.
8GG/	.	.	8ee-\J	.	8gg\J	.	.	.	8g\	-ro	.	.	.	.	.	.
8GG/	.	.	16r	.	16r	.	.	.	16r	.	.	.	.	.	.	.
.	.	.	16dd\LL	.	16ff\LL	.	.	.	16.f\LL	Om-	.	.	.	.	.	.
8GG/J	.	.	16dd\	.	16ff\	.	.	.	.	.	.	.	.	.	.	.
.	.	.	.	.	.	.	.	.	32f\JJk	.	.	.	.	.	.	.
.	.	.	16dd\JJ	.	16ff\JJ	.	.	.	16f\	-nis	.	.	.	.	.	.
!	!	!	!	!	!LO:LB:g=original	!	!	!	!	!	!	!	!	!	!	!
=69	=69	=69	=69	=69	=69	=69	=69	=69	=69	=69	=69	=69	=69	=69	=69	=69
*	*	*	*	*	*Xtuplet	*	*	*	*	*	*	*	*	*	*	*
!	!	!	!LO:TUP:a:problem:klamra łukowa, kropka zamiast numeru	!	!	!	!	!	!	!	!	!	!	!	!	!
8C/L	.	.	24cc\LL	.	24ee-\LL	.	2ryy	.	24e-\LL	Ca-	2ryy	.	2ryy	.	2ryy	2ryy
.	.	.	24ff\	.	24aa-\	.	.	.	24a-\	.	.	.	.	.	.	.
.	.	.	24ee-\J	.	24gg\J	.	.	.	24g\JJ	.	.	.	.	.	.	.
8C/	.	.	8ee-\J	.	8gg\J	.	.	.	8g\	-ro	.	.	.	.	.	.
8BBn/	.	.	16r	.	16r	.	.	.	16r	.	.	.	.	.	.	.
.	.	.	16dd\LL	.	16ff\LL	.	.	.	16.f\LL	Om-	.	.	.	.	.	.
8BB/J	.	.	16dd\	.	16ff\	.	.	.	.	.	.	.	.	.	.	.
.	.	.	.	.	.	.	.	.	32f\JJk	.	.	.	.	.	.	.
.	.	.	16dd\JJ	.	16ff\JJ	.	.	.	16f\	-nis	.	.	.	.	.	.
!LO:LB:g=original	!	!	!	!	!	!	!	!	!	!	!	!	!	!	!	!
=70	=70	=70	=70	=70	=70	=70	=70	=70	=70	=70	=70	=70	=70	=70	=70	=70
8C/L	.	.	8cc\L	.	16ee-\LL	.	2ryy	.	16e-\LL	ca-	2ryy	.	2ryy	.	2ryy	2ryy
.	.	.	.	.	16cc\JJ	.	.	.	16c\JJ	.	.	.	.	.	.	.
8C/	.	.	8a-\	.	24aa-\LL	.	.	.	24a-\LL	-ro	.	.	.	.	.	.
.	.	.	.	.	24gg\	.	.	.	24g\	.	.	.	.	.	.	.
.	.	.	.	.	24ff\JJ	.	.	.	24f\JJ	.	.	.	.	.	.	.
8BBn/	.	.	8g\	.	8ee-\L	.	.	.	8e-\	ve-	.	.	.	.	.	.
8BB/J	.	.	8f\J	.	8dd\J	.	.	.	8d\	-ni-	.	.	.	.	.	.
=71	=71	=71	=71	=71	=71	=71	=71	=71	=71	=71	=71	=71	=71	=71	=71	=71
!LO:TX:t=P:problem:mixed beam	!	!	!	!	!	!	!	!	!	!	!	!	!	!	!	!
8C\L	.	.	4g/	.	4cc\	.	2ryy	.	4c\	-et	2ryy	.	2ryy	.	2ryy	2ryy
8F\	.	.	.	.	.	.	.	.	.	.	.	.	.	.	.	.
8G\	.	.	16r	.	16r	.	.	.	8r	.	.	.	.	.	.	.
.	.	.	16f/LL	.	16dd\LL	.	.	.	.	.	.	.	.	.	.	.
8GG/J	.	.	16f/	.	16dd\	.	.	.	16F/	ad	.	.	.	.	.	.
.	.	.	16f/JJ	.	16dd\JJ	.	.	.	16F/	te	.	.	.	.	.	.
!	!	!	!LO:LB:g=original	!	!	!	!	!	!LO:LB:g=original	!	!	!	!	!	!	!
=72	=72	=72	=72	=72	=72	=72	=72	=72	=72	=72	=72	=72	=72	=72	=72	=72
*	*	*	*	*	*tuplet	*	*	*	*	*	*	*	*	*	*	*
!	!	!	!LO:TUP:a:problem:klamra łukowa	!	!LO:TUP:a:problem:klamra łukowa	!	!	!	!	!	!	!	!	!	!	!
8C/L	.	.	24e-/LL	.	24cc\LL	.	2ryy	.	24E-/LL	Om-	2ryy	.	2ryy	.	2ryy	2ryy
.	.	.	24a-/	.	24ff\	.	.	.	24A-/	.	.	.	.	.	.	.
.	.	.	24g/J	.	24ee-\J	.	.	.	24G/JJ	.	.	.	.	.	.	.
8C/	.	.	8g/J	.	8ee-\J	.	.	.	8G/	-nis	.	.	.	.	.	.
8BBn/	.	.	16r	.	16r	.	.	.	8r	.	.	.	.	.	.	.
.	.	.	16f/LL	.	16dd\LL	.	.	.	.	.	.	.	.	.	.	.
!	!	!	!	!	!	!	!	!	!LO:TUP:a:problem:klamra łukowa	!	!	!	!	!	!	!
8BB/J	.	.	16f/	.	16dd\	.	.	.	24F/LL	om-	.	.	.	.	.	.
.	.	.	.	.	.	.	.	.	24F/JJ	.	.	.	.	.	.	.
.	.	.	16f/JJ	.	16dd\JJ	.	.	.	.	.	.	.	.	.	.	.
.	.	.	.	.	.	.	.	.	24F/	-nis	.	.	.	.	.	.
=73	=73	=73	=73	=73	=73	=73	=73	=73	=73	=73	=73	=73	=73	=73	=73	=73
!	!	!	!LO:TUP:a:problem:klamra łukowa	!	!LO:TUP:a:problem:klamra łukowa	!	!	!	!	!	!	!	!	!	!	!
8C/L	.	.	24e-/LL	.	24cc\LL	.	2ryy	.	24E-/LL	Ca-	2ryy	.	2ryy	.	2ryy	2ryy
.	.	.	24a-/	.	24ff\	.	.	.	24A-/	.	.	.	.	.	.	.
.	.	.	24g/J	.	24ee-\J	.	.	.	24G/JJ	.	.	.	.	.	.	.
!	!	!	!	!	!	!	!	!	!LO:N:vis=16	!	!	!	!	!	!	!
8C/	.	.	8g/J	.	8ee-\J	.	.	.	8G/	-ro	.	.	.	.	.	.
8BBn/	.	.	16r	.	16r	.	.	.	16r	.	.	.	.	.	.	.
.	.	.	16f/LL	.	16dd\LL	.	.	.	16f\LL	Om-	.	.	.	.	.	.
8BB/J	.	.	16f/	.	16dd\	.	.	.	16f\JJ	.	.	.	.	.	.	.
.	.	.	16f/JJ	.	16dd\JJ	.	.	.	16f\	-nis	.	.	.	.	.	.
!	!	!	!	!	!LO:LB:g=original	!	!	!	!	!	!	!	!	!	!	!
=74	=74	=74	=74	=74	=74	=74	=74	=74	=74	=74	=74	=74	=74	=74	=74	=74
!LO:TX:t=P:problem:mixed beam	!	!	!	!	!	!	!	!	!	!	!	!	!	!	!	!
8C\L	.	.	8e-/L	.	16cc\LL	.	2ryy	.	16e-\LL	Ca-	2ryy	.	2ryy	.	2ryy	2ryy
.	.	.	.	.	16gg\JJ	.	.	.	16c\JJ	.	.	.	.	.	.	.
*	*	*	*	*	*Xtuplet	*	*	*	*	*	*	*	*	*	*	*
8F\	.	.	8f/	.	24aa-\LL	.	.	.	24a-\LL	-ro	.	.	.	.	.	.
.	.	.	.	.	24gg\	.	.	.	24g\	.	.	.	.	.	.	.
.	.	.	.	.	24ff\JJ	.	.	.	24f\JJ	.	.	.	.	.	.	.
8G\	.	.	8g/	.	8ee-\L	.	.	.	8e-\	ve-	.	.	.	.	.	.
8GG/J	.	.	8g/J	.	8dd\J	.	.	.	8d\	-ni-	.	.	.	.	.	.
=75	=75	=75	=75	=75	=75	=75	=75	=75	=75	=75	=75	=75	=75	=75	=75	=75
4C\	.	.	4g\	.	4cc\	.	2ryy	.	8c;\	-et	2ryy	.	2ryy	.	2ryy	2ryy
.	.	.	.	.	.	.	.	.	8r	.	.	.	.	.	.	.
4r	.	.	4r	.	4r	.	.	.	8a-\	Om-	.	.	.	.	.	.
.	.	.	.	.	.	.	.	.	8f\	-nis	.	.	.	.	.	.
=76	=76	=76	=76	=76	=76	=76	=76	=76	=76	=76	=76	=76	=76	=76	=76	=76
2r	.	.	2r	.	2r	.	2ryy	.	8e-\	Ca-	2ryy	.	2ryy	.	2ryy	2ryy
.	.	.	.	.	.	.	.	.	8d\	-ro	.	.	.	.	.	.
.	.	.	.	.	.	.	.	.	4r	.	.	.	.	.	.	.
=77	=77	=77	=77	=77	=77||	=77	=77	=77	=77	=77	=77	=77	=77	=77	=77	=77
!	!	!	!	!	!	!	!	!	!LO:N:vis=00	!	!	!	!	!	!	!
8C/L	.	.	8e-/L	.	8cc/L	f	2ryy	.	0r	.	2ryy	.	2ryy	.	2ryy	2ryy
8C/	.	.	8e-/	.	16.g/L	.	.	.	.	.	.	.	.	.	.	.
.	.	.	.	.	32a-/JJk	.	.	.	.	.	.	.	.	.	.	.
8BBn/	.	.	8d/	.	16.g/LL	.	.	.	.	.	.	.	.	.	.	.
.	.	.	.	.	32f/K	.	.	.	.	.	.	.	.	.	.	.
8BB/J	.	.	8d/J	.	16.e-/	.	.	.	.	.	.	.	.	.	.	.
.	.	.	.	.	32d/JJk	.	.	.	.	.	.	.	.	.	.	.
!LO:LB:g=original	!	!	!LO:LB:g=original	!	!	!	!	!	!	!	!	!	!	!	!	!
=78	=78	=78	=78	=78	=78	=78	=78	=78	=78	=78	=78	=78	=78	=78	=78	=78
8C\L	.	.	24c/LL	.	24c/LL	.	2ryy	.	.	.	2ryy	.	2ryy	.	2ryy	2ryy
!	!	!	!LO:SIC:v:s=24Bn/	!	!	!	!	!	!	!	!	!	!	!	!	!
.	.	.	24B-/	.	24G/	.	.	.	.	.	.	.	.	.	.	.
.	.	.	24c/J	.	24c/J	.	.	.	.	.	.	.	.	.	.	.
8E-\	.	.	8G/J	.	8G/J	.	.	.	.	.	.	.	.	.	.	.
!	!	!	!	!	!LO:N:vis=16	!	!	!	!	!	!	!	!	!	!	!
8E-\	.	.	8G/L	.	8r	.	.	.	.	.	.	.	.	.	.	.
8E-\J	.	.	8G/J	.	16c/LL	.	.	.	.	.	.	.	.	.	.	.
.	.	.	.	.	16e-/JJ	.	.	.	.	.	.	.	.	.	.	.
=79	=79	=79	=79	=79	=79	=79	=79	=79	=79	=79	=79	=79	=79	=79	=79	=79
8F\L	.	.	8A-/L	.	16d/LL	.	2ryy	.	.	.	2ryy	.	2ryy	.	2ryy	2ryy
.	.	.	.	.	16c/	.	.	.	.	.	.	.	.	.	.	.
8F\	.	.	8A-/	.	16d/	.	.	.	.	.	.	.	.	.	.	.
.	.	.	.	.	16a-/JJ	.	.	.	.	.	.	.	.	.	.	.
*	*	*	*	*	*tuplet	*	*	*	*	*	*	*	*	*	*	*
!	!	!	!	!	!LO:TUP:b:problem:klamra łukowa	!	!	!	!	!	!	!	!	!	!	!
8F\	.	.	8A-/	.	24a-/LL	.	.	.	.	.	.	.	.	.	.	.
.	.	.	.	.	24g/	.	.	.	.	.	.	.	.	.	.	.
.	.	.	.	.	24f/JJ	.	.	.	.	.	.	.	.	.	.	.
!	!	!	!	!	!LO:LB:g=original	!	!	!	!	!	!	!	!	!	!	!
!	!	!	!	!	!LO:TUP:b:problem:klamra łukowa	!	!	!	!	!	!	!	!	!	!	!
8F#X\J	.	.	8An/J	.	24e-/LL	.	.	.	.	.	.	.	.	.	.	.
.	.	.	.	.	24d/	.	.	.	.	.	.	.	.	.	.	.
.	.	.	.	.	24c/JJ	.	.	.	.	.	.	.	.	.	.	.
=80	=80	=80	=80	=80	=80	=80	=80	=80	=80	=80	=80	=80	=80	=80	=80	=80
!LO:TX:t=P:problem:mixed beam	!	!	!LO:SIC:s:v=Bn/	!	!	!	!	!	!	!	!	!	!	!	!	!
8GG/L	.	.	4B-/	.	4Bn/	.	2ryy	.	.	.	2ryy	.	2ryy	.	2ryy	2ryy
8G\J	.	.	.	.	.	.	.	.	.	.	.	.	.	.	.	.
4GG/	.	.	4r	.	16r	.	.	.	.	.	.	.	.	.	.	.
.	.	.	.	.	16G/LL	.	.	.	.	.	.	.	.	.	.	.
.	.	.	.	.	16A-/	.	.	.	.	.	.	.	.	.	.	.
.	.	.	.	.	16G/JJ	.	.	.	.	.	.	.	.	.	.	.
=81	=81	=81	=81	=81	=81	=81	=81	=81	=81	=81	=81	=81	=81	=81	=81	=81
!	!	!	!	!	!	!	!	!	!LO:N:vis=00	!	!	!	!	!	!	!
8BBn/L	.	.	8e-/L	.	16G/LL	.	2ryy	.	0r	.	2ryy	.	2ryy	.	2ryy	2ryy
.	.	.	.	.	16f/J	.	.	.	.	.	.	.	.	.	.	.
8C/	.	.	8G/	.	8e-/J	.	.	.	.	.	.	.	.	.	.	.
8C/	.	.	8e-/	.	16r	.	.	.	.	.	.	.	.	.	.	.
.	.	.	.	.	16gg\	.	.	.	.	.	.	.	.	.	.	.
*	*	*	*	*	*Xtuplet	*	*	*	*	*	*	*	*	*	*	*
8C/J	.	.	8e-/J	.	24gg\LL	.	.	.	.	.	.	.	.	.	.	.
.	.	.	.	.	24ff#X\	.	.	.	.	.	.	.	.	.	.	.
.	.	.	.	.	24gg\JJ	.	.	.	.	.	.	.	.	.	.	.
=82	=82	=82	=82	=82	=82	=82	=82	=82	=82	=82	=82	=82	=82	=82	=82	=82
8BBn/L	.	.	8G/L	.	16dd\LL	.	2ryy	.	.	.	2ryy	.	2ryy	.	2ryy	2ryy
.	.	.	.	.	16ffn\J	.	.	.	.	.	.	.	.	.	.	.
8C/	.	.	8G/	.	8ee-X\J	.	.	.	.	.	.	.	.	.	.	.
8C/	.	.	8e-/	.	16r	.	.	.	.	.	.	.	.	.	.	.
.	.	.	.	.	16G/LL	.	.	.	.	.	.	.	.	.	.	.
8C/J	.	.	8e-/J	.	16A-/	.	.	.	.	.	.	.	.	.	.	.
.	.	.	.	.	16G/JJ	.	.	.	.	.	.	.	.	.	.	.
=83	=83	=83	=83	=83	=83	=83	=83	=83	=83	=83	=83	=83	=83	=83	=83	=83
!LO:SIC:s:v=BBn/L	!	!	!	!	!	!	!	!	!	!	!	!	!	!	!	!
8BB-/L	.	.	8e-/L	.	16G/LL	.	2ryy	.	.	.	2ryy	.	2ryy	.	2ryy	2ryy
.	.	.	.	.	16f/J	.	.	.	.	.	.	.	.	.	.	.
8C/	.	.	8G/	.	8e-/J	.	.	.	.	.	.	.	.	.	.	.
8C/	.	.	8e-/	.	16r	.	.	.	.	.	.	.	.	.	.	.
.	.	.	.	.	16gg\	.	.	.	.	.	.	.	.	.	.	.
8C/J	.	.	8e-/J	.	24gg\LL	.	.	.	.	.	.	.	.	.	.	.
.	.	.	.	.	24ff#X\	.	.	.	.	.	.	.	.	.	.	.
.	.	.	.	.	24gg\JJ	.	.	.	.	.	.	.	.	.	.	.
!	!	!	!	!	!LO:LB:g=original	!	!	!	!	!	!	!	!	!	!	!
=84	=84	=84	=84	=84	=84	=84	=84	=84	=84	=84	=84	=84	=84	=84	=84	=84
!LO:TX:t=P:problem:mixed beam	!	!	!LO:TX:t=P:problem:mixed beam	!	!	!	!	!	!	!	!	!	!	!	!	!
8BBn/L	.	.	16.G/LL	.	16.dd\LL	.	2ryy	.	.	.	2ryy	.	2ryy	.	2ryy	2ryy
!	!	!	!	!	!LO:SIC:v:s=32ff\JJk	!	!	!	!	!	!	!	!	!	!	!
.	.	.	32ff\JJk	.	32gg\JJk	.	.	.	.	.	.	.	.	.	.	.
!	!	!	!	!	!LO:SIC:v:s=32ee-\LLL	!	!	!	!	!	!	!	!	!	!	!
8C/	.	.	32ee-\LLL	.	32ff\LLL	.	.	.	.	.	.	.	.	.	.	.
.	.	.	32bn\	.	32bn\	.	.	.	.	.	.	.	.	.	.	.
.	.	.	32cc\	.	32cc\	.	.	.	.	.	.	.	.	.	.	.
.	.	.	32f\JJJ	.	32f\JJJ	.	.	.	.	.	.	.	.	.	.	.
8G\	.	.	8e-/L	.	8e-/L	.	.	.	.	.	.	.	.	.	.	.
8GG/J	.	.	8d/J	.	8d/J	.	.	.	.	.	.	.	.	.	.	.
=85	=85	=85	=85	=85	=85	=85	=85	=85	=85	=85	=85	=85	=85	=85	=85	=85
8C/L	.	.	4c/	.	4c/	.	2ryy	.	2r	.	2ryy	.	2ryy	.	2ryy	2ryy
8GG/J	.	.	.	.	.	.	.	.	.	.	.	.	.	.	.	.
4CC/	.	.	4r	.	4r	.	.	.	.	.	.	.	.	.	.	.
==	==	==	==	==	==	==	==	==	==	==	==	==	==	==	==	==
*-	*-	*-	*-	*-	*-	*-	*-	*-	*-	*-	*-	*-	*-	*-	*-	*-
!!!system-decoration: [g1][g2][g3]g4
!!!RDF**dynam: p = "pia", fontstyle="bold-italic"
!!!RDF**dynam: f = "ffor", fontstyle="bold-italic"
!!!AIN: 1 alto 1 bass 2 cor 1 organ 1 soprn 1 tenor 2 violn
!!!ENC: Katarzyna Serwa
!!!END: 2022-01-11
!!!ENC: Marcin Jachim
!!!END: 2021-02-01
